!!!!SEGMENT: pl-sa--176-a-v-6--003_anonim--msza-patrem.krn
!!!cenid: 17xx:1614
!!!COM: Anonim
!!!COM-rismid: pe30004985
!!!CDT:
!!!CNT:
!!!OPR: Msza
!!!OTL: Patrem
!!!OMV: 003
!!!PDT:
!!!AGN: Sacred; Mass
!!!SMS-siglum: PL-SA
!!!SMS-shelfmark: 176/A V 6
!!!SMS-shelfwork: 001-003 M
!!!SMS-variant:
!!!SMS-altvar:
!!!NIFC-rismid: 1001035881
!!!URL-scan: http://bc.bdsandomierz.pl/dlibra/publication/1510/edition/1478/content
!!!ONB-nifc: UWAGA: części Mszy: 1. Kyrie, 2. Et in terra, 3. Patrem, 4. Sanctus, 5. Osanna, 6. Benedictus, 7. Agnus Dei. Uwaga: błąd w sygnaturze w metadanych bc.bdsandomierz.pl
!!!key: E-
**kern	**fb	**kern	**kern	**kern	**text	**kern	**text	**kern	**text	**kern	**text	**kern	**kern
*part9	*	*part8	*part7	*part6	*part6	*part5	*part5	*part4	*part4	*part3	*part3	*part2	*part1
*staff9	*	*staff8	*staff7	*staff6	*staff6	*staff5	*staff5	*staff4	*staff4	*staff3	*staff3	*staff2	*staff1
*group	*	*group3	*group3	*group2	*group2	*group2	*group2	*group2	*group2	*group2	*group2	*group1	*group1
*I"ORGANO.	*	*I"Violino 2do	*I"Violino 1mo.	*I"Baſso.	*	*I"Tenore.	*	*I"Alto.	*	*I"Canto.	*	*I"Lituo 2do ex Dis ad Libitum	*I"Lituo 1mo ex Dis ad Libitum
*I'org	*	*I'vl 2	*I'vl 1	*I'B	*	*I'T	*	*I'A	*	*I'S	*	*I'lituus	*I'lituus
*Iorgan	*	*Ivioln	*Ivioln	*Ibass	*	*Itenor	*	*Ialto	*	*Isoprn	*	*Ilituus	*Ilituus
*ICklav	*	*ICstr	*ICstr	*ICvox	*	*ICvox	*	*ICvox	*	*ICvox	*	*ICww	*ICww
*clefF4	*	*clefG2	*clefG2	*clefF4	*	*clefC4	*	*clefC3	*	*clefC1	*	*clefG2	*clefG2
*	*	*	*	*	*	*	*	*	*	*	*	*ITrd-2c-3	*ITrd-2c-3
*k[b-e-a-]	*	*k[b-e-a-]	*k[b-e-a-]	*k[b-e-a-]	*	*k[b-e-a-]	*	*k[b-e-a-]	*	*k[b-e-a-]	*	*k[b-e-a-]	*k[b-e-a-]
*E-:	*	*E-:	*E-:	*E-:	*	*E-:	*	*E-:	*	*E-:	*	*	*
*M6/8	*	*M6/8	*M6/8	*M6/8	*	*M6/8	*	*M6/8	*	*M6/8	*	*M6/8	*M6/8
=1	=1	=1	=1	=1	=1	=1	=1	=1	=1	=1	=1	=1	=1
*	*above	*	*	*	*	*	*	*	*	*	*	*	*
!	!	!	!	!LO:TX:a:t=P:problem=w źródle kolejność i wysokość znaków przykluczowych - AA- BB- E-	!	!LO:TX:a:t=P:problem=w źródle kolejność i wysokość znaków przykluczowych - A- B- e-	!	!	!	!	!	!	!
!	!	!	!	!	!	!	!	!LO:TX:a:t=P:problem=w źródle kolejność i wysokość znaków przykluczowych - A- e- B-	!	!LO:TX:a:t=P:problem=w źródle kolejność i wysokość znaków przykluczowych - a- ee- b-	!	!	!
!	!	!LO:TX:a:t=P:problem=w źródle kolejność i wysokość znaków przykluczowych - a- b- ee-	!LO:TX:a:t=P:problem=w źródle kolejność i wysokość znaków przykluczowych - a- b- ee-	!	!	!	!	!	!	!	!	!	!
!LO:TX:a:t=P:problem=w źródle kolejność i wysokość znaków przykluczowych - AA- BB- E- A-	!	!	!	!	!	!	!	!	!	!	!	!	!
4E-\	.	8g\L	8ee-\L	4E-\	Pa-	4B-\	Pa-	4g\	Pa-	4ee-\	Pa-	8gg\L	8bb-\L
.	.	8b-\	8gg\	.	.	.	.	.	.	.	.	16gg\L	16bb-\L
.	.	.	.	.	.	.	.	.	.	.	.	16gg\	16bb-\
8E-\	.	8b-\J	8bb-\J	8E-\	-trem	8B-\	-trem	8g\	-trem	8ee-\	-trem	16gg\	16bb-\
.	.	.	.	.	.	.	.	.	.	.	.	16gg\JJ	16bb-\JJ
8E-\L	.	4b-\	4gg\	8E-\	Om-	8B-\	Om-	8g\	Om-	8ee-\	Om-	8gg\L	8bb-\L
8G\	X 6	.	.	8G\	-ni-	8B-\	-ni-	8g\	-ni-	8ee-\	-ni-	8ee-\	8gg\
8A-\J	6 5	8cc\	8ff\	8A-\	-po-	8c\	-po-	8f\	-po-	8ee-\	-po-	8ee-\J	8ff\J
=2	=2	=2	=2	=2	=2	=2	=2	=2	=2	=2	=2	=2	=2
4B-\	.	16dd\LL	16ff\LL	4B-\	-ten-	4B-\	-ten-	4f\	-ten-	4dd\	-ten-	4b-/	4ff\
.	.	16cc\	16ee-\	.	.	.	.	.	.	.	.	.	.
.	.	16b-\	16dd\	.	.	.	.	.	.	.	.	.	.
.	.	16cc\	16ee-\	.	.	.	.	.	.	.	.	.	.
8BB-/	.	16dd\	16ff\	8BB-/	-tem	8B-\	-tem	8f\	-tem	8dd\	-tem	8b-/	8ff\
.	.	16ee-\JJ	16gg\JJ	.	.	.	.	.	.	.	.	.	.
!	!	!	!	!	!	!	!	!	!	!	!	!	!LO:TX:t=|
!	!	!	!	!	!	!	!	!	!	!	!	!LO:N:vis=2	!LO:N:vis=2
8B-\L	.	8dd\L	8ff\L	8B-\	Pa-	8B-\	Pa-	8f\	Pa-	8dd\	Pa-	4.r	4.r
16B-\L	.	8dd\J	8ff\J	16B-\	-trem	16F/	-trem	16f\	-trem	16dd\	-trem	.	.
16B-\	.	.	.	16B-\	Om-	16B-\	Om-	16f\	Om-	16dd\	Om-	.	.
16B-\	.	8r	8r	16B-\	-ni-	16B-\	-ni-	16f\	-ni-	16dd\	-ni-	.	.
16B-\JJ	.	.	.	16B-\	-po-	16d\	-po-	16f\	-po-	16ff\	-po-	.	.
=3	=3	=3	=3	=3	=3	=3	=3	=3	=3	=3	=3	=3	=3
!LO:TX:t=P:problem=mixed beam	!	!	!	!	!	!	!	!	!	!	!	!	!
8B-\L	.	16dd\LL	16ff\LL	8B-\	-ten-	8B-\	-ten-	8f\	-ten-	8dd\	-ten-	8b-/L	8ff\L
.	.	16cc\	16ee-\	.	.	.	.	.	.	.	.	.	.
8BB-/J	.	16b-\	16dd\	8BB-/	-tem	8F/	-tem	8f\	-tem	8b-\	-tem	8b-/	8ff\
.	.	16cc\	16ee-\	.	.	.	.	.	.	.	.	.	.
8r	.	16dd\	16ff\	8r	.	8r	.	8r	.	8r	.	8b-/J	8ff\J
.	.	16ee-\JJ	16gg\JJ	.	.	.	.	.	.	.	.	.	.
8B-\L	.	16dd\LL	16ff\LL	8B-\	Fac-	8B-\	Fac-	8f\	Fac-	8dd\	Fac-	8b-/L	8ff\L
.	.	16cc\	16ee-\	.	.	.	.	.	.	.	.	.	.
8B-\	.	16b-\	16dd\	8B-\	-to-	8B-\	-to-	8f\	-to-	8dd\	-to-	8b-/J	8ff\J
.	.	16cc\	16ee-\	.	.	.	.	.	.	.	.	.	.
8B-\J	.	16dd\	16ff\	8B-\	-rem	8f\	-rem	8f\	-rem	8dd\	-rem	8r	8r
.	.	16ee-\JJ	16gg\JJ	.	.	.	.	.	.	.	.	.	.
!	!	!	!	!	!	!	!	!LO:LB:g=original	!	!	!	!	!
=4	=4	=4	=4	=4	=4	=4	=4	=4	=4	=4	=4	=4	=4
!LO:TX:t=P:problem=mixed beam	!	!	!	!	!	!	!	!	!	!	!	!	!
8B-\L	.	16dd\LL	16ff\LL	4B-\	Cae-	4d\	Cae-	4f\	Cae-	4dd\	Cae-	8r	8r
.	.	16cc\JJ	16ee-\	.	.	.	.	.	.	.	.	.	.
8BB-/	X 6	8b-\L	16dd\	.	.	.	.	.	.	.	.	8r	8r
.	.	.	16ee-\	.	.	.	.	.	.	.	.	.	.
8D/J	.	8b-\J	16ff\	8BB-/	-li	8B-\	-li	8f\	-li	8dd\	-li	8ff\	8bb-\
.	.	.	16gg\JJ	.	.	.	.	.	.	.	.	.	.
!	!	!	!	!	!	!LO:LB:g=original	!	!	!	!	!	!	!
!LO:TX:t=P:problem=mixed beam	!	!LO:TX:t=P:problem=mixed beam	!	!	!	!	!	!	!	!	!	!	!
8E-\L	6 5	8cc\L	(>16ee-\LL	8E-\	et	8B-\	et	8g\	et	8cc\	et	8gg\L	16ccc\LL
.	.	.	16dd\JJ)	.	.	.	.	.	.	.	.	.	16bb-\JJ
8F\	X n	8f/	8.cc\L	4F\	ter-	4An\	ter-	4f\	ter-	4cc\	ter-	8.ff\	8.aaX\L
8FF/J	.	8an/J	.	.	.	.	.	.	.	.	.	.	.
.	.	.	16cc\Jk	.	.	.	.	.	.	.	.	16ff\Jk	16aa\Jk
!	!	!	!	!LO:LB:g=original	!	!	!	!	!	!	!	!	!
=5	=5	=5	=5	=5	=5	=5	=5	=5	=5	=5	=5	=5	=5
!LO:TX:t=P:problem=mixed beam	!	!	!	!	!	!	!	!	!	!	!	!	!
8BB-/L	.	8b-/	8b-/L	4BB-/	-rae	4B-\	-rae	4f\	-rae	4b-\	-rae	4ff\	4bb-\
16B-\L	.	16b-/LL	16b-/L	.	.	.	.	.	.	.	.	.	.
16A-\	.	16a-X/	16a-/	.	.	.	.	.	.	.	.	.	.
16G\	.	16g/	16g/	8r	.	8r	.	8r	.	8r	.	8r	8r
16F\JJ	.	16f/JJ	16f/JJ	.	.	.	.	.	.	.	.	.	.
!	!	!	!LO:LB:g=original	!	!	!	!	!	!	!	!	!LO:N:vis=2	!LO:N:vis=2
8E-\L	.	4e-/	4e-/	16E-\	Vi-	16B-\	Vi-	16g\	Vi-	16b-\	Vi-	4.r	4.r
.	.	.	.	16E-\	-si-	16B-\	-si-	16g\	-si-	16b-\	-si-	.	.
8E-\	.	.	.	8E-\	-bi-	8f\	-bi-	8g\	-bi-	8b-\	-bi-	.	.
8E-\J	.	8r	8r	16E-\	-li-	16B-\	-li-	16g\	-li-	16b-\	-li-	.	.
.	.	.	.	16E-\	-um	16B-\	-um	16g\	-um	16b-\	-um	.	.
!	!	!LO:LB:g=original	!	!	!	!	!	!	!	!LO:LB:g=original	!	!	!
=6	=6	=6	=6	=6	=6	=6	=6	=6	=6	=6	=6	=6	=6
!LO:TX:t=P:problem=mixed beam	!	!	!	!	!	!	!	!	!	!	!	!	!
8E-\L	.	16g/LL	16b-\LL	8.E-\	om-	8.B-\	om-	8.g\	om-	8.g/	Om-	8gg\L	8bb-\L
.	.	16f/	16a-\	.	.	.	.	.	.	.	.	.	.
8EE-/J	.	16e-/	16g\	.	.	.	.	.	.	.	.	8gg\	8bb-\
.	.	16f/	16a-\	16E-\	-ni-	16B-\	-ni-	16g\	-ni-	16f/	-ni-	.	.
8r	.	16g/	16b-\	8E-\	-um	8B-\	-um	8g\	-um	8e-/	-um	8gg\J	8bb-\J
.	.	16a-/JJ	16cc\JJ	.	.	.	.	.	.	.	.	.	.
!	!	!	!	!	!	!	!	!	!	!	!	!	!LO:LB:g=original
8E-\L	.	8g/L	8b-\L	8E-\	et	8B-\	et	8g\	et	8ee-\	et	8gg\L	8bb-\L
16E-\L	.	8g/J	8b-\J	16E-\L	in-	8B-\	in-	8g\	in-	8ee-\	in-	8ee-\	8gg\
16F\J	X 6	.	.	16F\J	.	.	.	.	.	.	.	.	.
8G\J	.	8r	8r	8G\	-Vi-	8B-\	-Vi-	8g\	-Vi-	8ee-\	-Vi-	8gg\J	8bb-\J
!LO:LB:g=original	!	!	!	!	!	!	!	!	!	!	!	!	!
=7	=7	=7	=7	=7	=7	=7	=7	=7	=7	=7	=7	=7	=7
!LO:TX:t=P:problem=mixed beam	!	!	!	!	!	!	!	!	!	!	!	!	!LO:N:acc=n
8A-\L	6 5	16a-/LL	8cc\L	8A-\	-si-	8c\	-si-	8f\	-si-	8ee-\	-si-	16ff\LL	16aa-\LL
.	.	16g/JJ	.	.	.	.	.	.	.	.	.	16ee-\JJ	16gg\JJ
8B-\	.	8f/L	16dd\L	8B-\	-bi-	8.B-\	-bi-	8.f\	-bi-	8.dd\	-bi-	8.b-/L	8.ff\L
.	.	.	16ee-\	.	.	.	.	.	.	.	.	.	.
8BB-/J	.	8f/J	16ff\	8BB-/	-li-	.	.	.	.	.	.	.	.
.	.	.	16gg\JJ	.	.	16B-\	-li-	16f\	-li-	16dd\	-li-	16b-/Jk	16ff\Jk
4E-\	.	4g/	4ee-\	4E-\	-um	4B-\	-um	4g\	-um	4ee-\	-um	4g/	4ee-\
8r	.	8r	8r	8r	.	8r	.	8r	.	8r	.	8r	8r
=8	=8	=8	=8	=8	=8	=8	=8	=8	=8	=8	=8	=8	=8
16C\LL	.	1.r	1.r	0.r	.	0.r	.	[>8g\	Et	4cc\	Et	0.r	0.r
16D\J	.	.	.	.	.	.	.	.	.	.	.	.	.
8E-\J	.	.	.	.	.	.	.	8g\]	.	.	.	.	.
16D\LL	.	.	.	.	.	.	.	8g\	in	8cc\	in	.	.
16C\JJ	.	.	.	.	.	.	.	.	.	.	.	.	.
16BBn/LL	X 6_	.	.	.	.	.	.	4g\	V-	4dd\	V-	.	.
16C/JJ	.	.	.	.	.	.	.	.	.	.	.	.	.
8D/	X X	.	.	.	.	.	.	.	.	.	.	.	.
16C/LL	.	.	.	.	.	.	.	8g\	-num	8dd\	-num	.	.
16BBn/JJ	.	.	.	.	.	.	.	.	.	.	.	.	.
!	!	!	!	!	!	!	!	!LO:LB:g=original	!	!	!	!	!
=9	=9	=9	=9	=9	=9	=9	=9	=9	=9	=9	=9	=9	=9
4C/	.	.	.	.	.	.	.	8g\	Do-	8ee-\	Do-	.	.
.	.	.	.	.	.	.	.	16a-\	-mi-	16ff\	-mi-	.	.
.	.	.	.	.	.	.	.	16g\	-num	16ee-\	-num	.	.
8F\	X 6	.	.	.	.	.	.	16f\	Je-	16dd\	Je-	.	.
.	X 5	.	.	.	.	.	.	16e-\	-sum	16cc\	-ſum	.	.
16G\LL	.	.	.	.	.	.	.	4d\	Chri-	4bn\	Chri-	.	.
16An\JJ	.	.	.	.	.	.	.	.	.	.	.	.	.
8Bn\	X 6	.	.	.	.	.	.	.	.	.	.	.	.
16An\LL	.	.	.	.	.	.	.	8d\	-stum	8b\	-stum	.	.
16G\JJ	.	.	.	.	.	.	.	.	.	.	.	.	.
=10	=10	=10	=10	=10	=10	=10	=10	=10	=10	=10	=10	=10	=10
4C/	.	16cc\LL	16cc\LL	.	.	.	.	1.r	.	1.r	.	.	.
.	.	16dd\JJ	16dd\JJ	.	.	.	.	.	.	.	.	.	.
.	.	8ee-\L	8ee-\L	.	.	.	.	.	.	.	.	.	.
8r	.	16dd\L	16dd\L	.	.	.	.	.	.	.	.	.	.
.	.	16cc\JJ	16cc\JJ	.	.	.	.	.	.	.	.	.	.
4D/	X 6\	16dd\LL	16dd\LL	.	.	.	.	.	.	.	.	.	.
.	.	16ee-\JJ	16ee-\JJ	.	.	.	.	.	.	.	.	.	.
.	.	8ff\L	8ff\L	.	.	.	.	.	.	.	.	.	.
8r	.	16ee-\L	16ee-\L	.	.	.	.	.	.	.	.	.	.
.	.	16dd\JJ	16dd\JJ	.	.	.	.	.	.	.	.	.	.
=11	=11	=11	=11	=11	=11	=11	=11	=11	=11	=11	=11	=11	=11
4C/	.	16cc\LL	16ee-\LL	.	.	.	.	.	.	.	.	.	.
.	.	16ee-\	16gg\	.	.	.	.	.	.	.	.	.	.
.	.	16ff\	16aa-\	.	.	.	.	.	.	.	.	.	.
.	.	16ee-\	16gg\	.	.	.	.	.	.	.	.	.	.
8r	.	16dd\	16ff\	.	.	.	.	.	.	.	.	.	.
.	.	16cc\JJ	16ee-\JJ	.	.	.	.	.	.	.	.	.	.
4G\	X n	4bn\	4dd\	.	.	.	.	.	.	.	.	.	.
8r	.	8b\	8dd\	.	.	.	.	.	.	.	.	.	.
=12	=12	=12	=12	=12	=12	=12	=12	=12	=12	=12	=12	=12	=12
16C\LL	.	1.r	1.r	0.r	.	0.r	.	4g\	Et	4cc\	Et	0.r	0.r
16D\JJ	.	.	.	.	.	.	.	.	.	.	.	.	.
8E-\	.	.	.	.	.	.	.	.	.	.	.	.	.
16D\LL	.	.	.	.	.	.	.	8g\	in	8cc\	in	.	.
16C\JJ	.	.	.	.	.	.	.	.	.	.	.	.	.
16BBn/LL	X 6_	.	.	.	.	.	.	4g\	V-	4dd\	V-	.	.
16C/JJ	.	.	.	.	.	.	.	.	.	.	.	.	.
8D/	.	.	.	.	.	.	.	.	.	.	.	.	.
16C/LL	.	.	.	.	.	.	.	8g\	-num	8dd\	-num	.	.
16BBn/JJ	X X	.	.	.	.	.	.	.	.	.	.	.	.
!LO:LB:g=original	!	!	!	!	!	!	!	!	!	!	!	!	!
=13	=13	=13	=13	=13	=13	=13	=13	=13	=13	=13	=13	=13	=13
4C/	.	.	.	.	.	.	.	8g\	Do-	8ee-\	Do-	.	.
.	.	.	.	.	.	.	.	16a-\	-mi-	16ff\	-mi-	.	.
.	.	.	.	.	.	.	.	16g\	-num	16ee-\	-num	.	.
8F\	.	.	.	.	.	.	.	16f\	Je-	16dd\	Je-	.	.
.	.	.	.	.	.	.	.	16e-\	-ſum	16cc\	-ſum	.	.
!	!	!	!	!	!	!	!	!	!	!LO:LB:g=original	!	!	!
16G\LL	.	.	.	.	.	.	.	4d\	Chri-	4bn\	Chri-	.	.
16An\JJ	.	.	.	.	.	.	.	.	.	.	.	.	.
8Bn\	.	.	.	.	.	.	.	.	.	.	.	.	.
16An\LL	.	.	.	.	.	.	.	8d\	-ſtum	8b\	-stum	.	.
16G\JJ	.	.	.	.	.	.	.	.	.	.	.	.	.
=14	=14	=14	=14	=14	=14	=14	=14	=14	=14	=14	=14	=14	=14
!LO:TX:t=P:problem=mixed beam	!	!LO:TX:t=P:problem=mixed beam	!LO:TX:t=P:problem=mixed beam	!	!	!	!	!	!	!	!	!	!
8c\L	.	8cc\L	8cc\L	.	.	.	.	(>16e-\LL	Fi-	(>16cc\LL	Fi-	.	.
.	.	.	.	.	.	.	.	16f\JJ)	.	16dd\JJ)	.	.	.
8C/	.	8c/	8c/	.	.	.	.	8g\	.	8ee-\	.	.	.
8c\J	.	8cc\J	8cc\J	.	.	.	.	16f\	-li-	16dd\	-li-	.	.
.	.	.	.	.	.	.	.	16e-\	-um	16cc\	-um	.	.
16F\LL	X -	16f/LL	16f/LL	.	.	.	.	4a-\	De-	4ff\	De-	.	.
16G\JJ	.	16g/J	16g/JJ	.	.	.	.	.	.	.	.	.	.
8A-X\L	X 6	8a-/J	8a-/L	.	.	.	.	.	.	.	.	.	.
16G\L	.	16g/LL	16g/L	.	.	.	.	8a-\	-i	8ff\	-i	.	.
16F\JJ	.	16f/JJ	16f/JJ	.	.	.	.	.	.	.	.	.	.
!	!	!LO:LB:g=original	!LO:LB:g=original	!	!	!	!	!	!	!	!	!	!
=15	=15	=15	=15	=15	=15	=15	=15	=15	=15	=15	=15	=15	=15
!LO:TX:t=P:problem=mixed beam	!	!	!	!	!	!	!	!	!	!	!	!	!
8B-\L	.	8b-/L	8b-/L	.	.	.	.	(>16d\LL	Fi-	(>16b-\LL	Fi-	.	.
.	.	.	.	.	.	.	.	16e-\JJ)	.	16cc\JJ)	.	.	.
8BB-/	.	8B-/	8B-/	.	.	.	.	8f\	.	8dd\	.	.	.
8B-\J	.	8b-/J	8b-/J	.	.	.	.	16e-\	-li-	16cc\	-li-	.	.
.	.	.	.	.	.	.	.	16d\	-um	16b-\	-um	.	.
!	!	!	!	!	!	!	!	!LO:LB:g=original	!	!	!	!	!
8.E-\L	.	8.e-/L	8.e-/L	.	.	.	.	8.g\	De-	8.ee-\	De-	.	.
16F\K	.	16f/K	16f/K	.	.	.	.	16f\	-i	16dd\	-i	.	.
8G\J	.	8g/J	8g/J	.	.	.	.	8e-\	V-	16ee-\LL	V-	.	.
.	.	.	.	.	.	.	.	.	.	16b-\JJ	.	.	.
=16	=16	=16	=16	=16	=16	=16	=16	=16	=16	=16	=16	=16	=16
!LO:TX:t=P:problem=mixed beam	!	!	!LO:TX:t=P:problem=mixed beam	!	!	!	!	!	!	!	!	!LO:N:vis=2	!LO:N:vis=2
!	!	!	!	!LO:N:vis=2	!	!	!	!	!	!	!	!	!
8A-\L	.	8a-X/L	8a-\L	4.r	.	4r	.	8e-\	-ni-	16a-\LL	-ni-	4.r	4.r
.	.	.	.	.	.	.	.	.	.	16g\JJ	.	.	.
8B-\	.	8b-/	8b-\	.	.	.	.	8.d\	-ge-	8.f/	-ge-	.	.
8BB-/J	.	8B-/J	8B-/J	.	.	8r	.	.	.	.	.	.	.
.	.	.	.	.	.	.	.	16d\	-ni-	16f/	-ni-	.	.
8E-\L	.	8e-/L	8e-/L	8r	.	4B-\	Et	8e-\	-tum	8e-/	-tum	8r	8r
8E-\	.	8e-/	8g/	8E-\	Et	.	.	8g\	Et	8ee-\	et	8gg\L	8bb-\L
8E-\J	.	8g/J	8b-/J	8E-\	ex	8B-\	ex	8g\	ex	8ee-\	ex	8gg\J	8bb-\J
=17	=17	=17	=17	=17	=17	=17	=17	=17	=17	=17	=17	=17	=17
8E-\L	.	8b-/L	16ee-\LL	8E-\L	Pa-	4B-\	Pa-	4g\	Pa-	4ee-\	Pa-	8gg\L	8bb-\L
.	.	.	16dd\	.	.	.	.	.	.	.	.	.	.
8G\	.	16g/L	16ee-\	8G\J	.	.	.	.	.	.	.	8gg\	8bb-\
.	.	16b-/	16gg\	.	.	.	.	.	.	.	.	.	.
8A-\J	6 5	16a-/	16ff\	8A-\	-tre	8c\	-tre	8f\	-tre	8ee-\	-tre	16ff\L	16aa-\L
.	.	16g/JJ	16ee-\JJ	.	.	.	.	.	.	.	.	16ee-\JJ	16gg\JJ
!	!	!	!	!	!	!LO:LB:g=original	!	!	!	!	!	!LO:LB:g=original	!
4B-\	.	4f/	16dd\LL	4B-\	na-	4B-\	na-	4f\	na-	4dd\	na-	4b-/	4ff\
.	.	.	16ee-\	.	.	.	.	.	.	.	.	.	.
.	.	.	16ff\	.	.	.	.	.	.	.	.	.	.
.	.	.	16dd\J	.	.	.	.	.	.	.	.	.	.
8BB-/	.	8f/	8b-\J	8BB-/	-tum	8B-\	-tum	8f\	-tum	8dd\	-tum	8b-/	8ff\
=18	=18	=18	=18	=18	=18	=18	=18	=18	=18	=18	=18	=18	=18
!	!	!LO:N:vis=2	!LO:N:vis=2	!	!	!	!	!	!	!	!	!LO:N:vis=2	!LO:N:vis=2
8.B-\L	.	4.r	4.r	8.B-\	et	8.d\	Et	8.f\	Et	8.b-\	Et	4.r	4.r
16B-\L	.	.	.	16B-\	ex	16d\	ex	16f\	ex	16b-\	ex	.	.
16B-\	.	.	.	16B-\	Pa-	16d\	Pa-	16f\	Pa-	16dd\	Pa-	.	.
16B-\JJ	.	.	.	16B-\	-tre	16d\	-tre	16f\	-tre	16ff\	-tre	.	.
!LO:TX:t=P:problem=mixed beam	!	!	!	!	!	!	!	!	!	!	!	!	!
!	!	!	!	!LO:LB:g=original	!	!	!	!	!	!LO:LB:g=original	!	!	!
8B-\L	.	16dd\LL	16ff\LL	8B-\	na-	8d\	na-	8f\	na-	8dd\	na-	8b-/L	8ff\L
.	.	16cc\	16ee-\	.	.	.	.	.	.	.	.	.	.
8BB-/J	.	16b-\	16dd\	8BB-/	-tum	8d\	-tum	8f\	-tum	8b-\	-tum	16b-/L	16ff\L
.	.	16cc\	16ee-\	.	.	.	.	.	.	.	.	16b-/	16ff\
8r	.	16dd\	16ff\	8r	.	8r	.	8r	.	8r	.	16b-/	16ff\
.	.	16ee-\JJ	16gg\JJ	.	.	.	.	.	.	.	.	16b-/JJ	16ff\JJ
=19	=19	=19	=19	=19	=19	=19	=19	=19	=19	=19	=19	=19	=19
!LO:TX:t=P:problem=mixed beam	!	!	!	!	!	!	!	!	!	!	!	!	!
8B-\L	.	8.dd\L	16ff\LL	8B-\	An-	8d\	An-	8f\	An-	(>16b-\LL	an-	4b-/	4ff\
.	.	.	16ee-\	.	.	.	.	.	.	16cc\JJ)	.	.	.
16BB-/L	.	.	16dd\	16BB-/LL	-te	8d\	-te	8f\	-te	(>16dd\LL	-te	.	.
16C/J	.	16cc\K	16ee-\J	16C/JJ	.	.	.	.	.	16ee-\JJ)	.	.	.
8D/J	.	8b-\J	8ff\J	8D\	Om-	8d\	Om-	8f\	Om-	8ff\	o-	8ff\	8bb-\
!LO:LB:g=original	!	!	!	!	!	!	!	!	!	!	!	!	!
!LO:TX:t=P:problem=mixed beam	!	!LO:TX:t=P:problem=mixed beam	!	!	!	!	!	!	!	!	!	!	!
8E-\L	6 5	8cc\L	8gg\L	16E-\	-ni-	16c\	-ni-	16g\	-ni-	16ee-\	-mni-	8gg\	16ccc\LL
.	.	.	.	16E-\	-a	16B-\	-a	16g\	-a	16dd\	-a	.	16bb-\JJ
8F\	X n	8f/	8cc\	8.F\	Sae-	8.An\	Sae-	8.f\	Sae-	8.cc\	Sae-	4ff\	8.aaX\L
8FF/J	.	8an/J	8ff\J	.	.	.	.	.	.	.	.	.	.
.	.	.	.	16FF/	-cu-	16A\	-cu-	16f\	-cu-	16cc\	-cu-	.	16aa\Jk
!	!	!	!	!	!	!	!	!LO:LB:g=original	!	!	!	!	!
=20	=20	=20	=20	=20	=20	=20	=20	=20	=20	=20	=20	=20	=20
!LO:TX:t=P:problem=mixed beam	!	!	!	!	!	!	!	!	!	!	!	!	!
8BB-/L	.	8b-/	8dd\L	4BB-/	-la	4B-\	-la	4f\	-la	4b-\	-la	4ff\	4bb-\
16B-\L	.	16b-/LL	16b-\L	.	.	.	.	.	.	.	.	.	.
16A-\	.	16a-X/	16a-\	.	.	.	.	.	.	.	.	.	.
16G\	.	16g/	16g\	8r	.	8r	.	8r	.	8r	.	8r	8r
16F\JJ	.	16f/JJ	16f\JJ	.	.	.	.	.	.	.	.	.	.
!	!	!	!	!	!	!	!	!	!	!	!	!LO:N:vis=2	!LO:N:vis=2
8E-\L	.	4e-/	4e-/	8E-\	De-	8B-\	De-	8g\	De-	8b-\	De-	4.r	4.r
8E-\	.	.	.	8E-\	-um	8B-\	-um	8g\	-um	(>16ee-\LL	-um	.	.
.	.	.	.	.	.	.	.	.	.	16dd\JJ)	.	.	.
8E-\J	.	8r	8r	8E-\	de	8B-\	de	8g\	de	(>16ee-\LL	de	.	.
.	.	.	.	.	.	.	.	.	.	16b-\JJ)	.	.	.
=21	=21	=21	=21	=21	=21	=21	=21	=21	=21	=21	=21	=21	=21
!LO:TX:t=P:problem=mixed beam	!	!	!	!	!	!	!	!	!	!	!	!	!LO:TX:t=P:problem=takt nieczytelny
8E-\L	.	16g/LL	16b-\LL	8E-\	De-	8B-\	De-	8g\	De-	8g/	De-	8gg\L	8bb-\L
.	.	16f/	16a-\	.	.	.	.	.	.	.	.	.	.
8EE-/J	.	16e-/	16g\	8E-\	-o	8B-\	-o	8g\	-o	8e-/	-o	8gg\	8bb-\
.	.	16f/	16a-\	.	.	.	.	.	.	.	.	.	.
8r	.	16g/	16b-\	8r	.	8r	.	8r	.	8r	.	8gg\J	8bb-\J
.	.	16a-/JJ	16cc\JJ	.	.	.	.	.	.	.	.	.	.
8E-\L	.	8g/L	8b-\L	8E-\	lu-	8B-\	Lu-	8g\	Lu-	8b-\	Lu-	8gg\L	8bb-\L
8E-\	.	8g/J	8b-\J	8E-\	-men	8B-\	-men	8g\	-men	(>16ee-\LL	-men	8ee-\J	8gg\J
.	.	.	.	.	.	.	.	.	.	(16dd\JJ)	.	.	.
8E-\J	.	8r	8r	8E-\	de	8B-\	de	8g\	de	(>16ee-\LL	de	8r	8r
.	.	.	.	.	.	.	.	.	.	16b-\JJ)	.	.	.
!	!	!LO:LB:g=original	!LO:LB:g=original	!	!	!LO:LB:g=original	!	!	!	!	!	!	!LO:PB:g=original
=22	=22	=22	=22	=22	=22	=22	=22	=22	=22	=22	=22	=22	=22
4E-\	.	16g/LL	16b-\LL	8.E-\	Lu-	8.B-\	Lu-	8.g\	Lu-	8.g/	Lu-	8gg\L	8bb-\L
.	.	16f/	16a-\	.	.	.	.	.	.	.	.	.	.
.	.	16e-/	16g\	.	.	.	.	.	.	.	.	8gg\	8bb-\
.	.	16f/	16a-\	16E-\	-mi-	16B-\	-mi-	16g\	-mi-	16e-/	-mi-	.	.
8E-\	.	16g/	16b-\	8E-\	-ne	8B-\	-ne	8g\	-ne	8e-/	-ne	8gg\J	8bb-\J
.	.	16a-/JJ	16cc\JJ	.	.	.	.	.	.	.	.	.	.
8r	.	8g/L	8b-\L	8r	.	8r	.	8r	.	8r	.	8gg\L	8bb-\L
8E-\L	.	8g/	8b-\	8E-\	De-	8B-\	De-	8g\	De-	8b-\	De-	8ee-\	8gg\
8G\J	X 6	8e-/J	8b-\J	8G\	-um	8B-\	-um	8g\	-um	8ee-\	-um	8ee-\J	8bb-\J
!	!	!	!	!	!	!	!	!	!	!LO:LB:g=original	!	!	!
=23	=23	=23	=23	=23	=23	=23	=23	=23	=23	=23	=23	=23	=23
8A-\L	.	8e-/L	8cc\L	8A-\	Ve-	8c\	Ve-	8e-\	Ve-	8cc\	Ve-	8ee-\L	8ccc\L
8F\	X 6	8f/	8dd\	16F\	-rum	16A-\	-rum	16a-\	-rum	16dd\	-rum	8ff\	8aa-\
.	.	.	.	16F\	de	16A-\	de	16a-\	de	16ee-\	de	.	.
8E-\J	.	8g/J	8ee-\J	8E-\	De-	8B-\	De-	8g\	De-	8ee-\	De-	8b-\J	8gg\J
!LO:TX:t=P:problem=mixed beam	!	!	!	!	!	!	!	!	!	!	!	!	!
!	!	!	!	!LO:LB:g=original	!	!	!	!	!	!	!	!	!
8A-\L	6 5	8a-/L	8ff\L	8A-\	-o	8c\	-o	8f\	-o	8ff\	-o	8ee-\	8ff\
!	!	!	!	!LO:TX:t=P:problem=mixed beam	!	!	!	!	!	!	!	!	!
8B-\	.	8f/	8b-\	8B-\L	Ve-	4B-\	Ve-	4f\	Ve-	4dd\	Ve-	4b-/	4ff\
8BB-/J	.	8b-/J	8dd\J	8BB-/J	.	.	.	.	.	.	.	.	.
=24	=24	=24	=24	=24	=24	=24	=24	=24	=24	=24	=24	=24	=24
8E-\	.	8g/L	8ee-\L	8E-\	-ro	8B-\	-ro	8g\	-ro	8ee-\	-ro	8g/	8ee-\
16r	.	8b-/	8gg\	8r	.	8r	.	8r	.	8r	.	8r	8r
16E-\LL	.	.	.	.	.	.	.	.	.	.	.	.	.
16E-\	.	8b-/J	8gg\J	8r	.	8r	.	8r	.	8r	.	8r	8r
16E-\JJ	.	.	.	.	.	.	.	.	.	.	.	.	.
!	!	!	!	!LO:N:vis=2	!	!LO:N:vis=2	!	!LO:N:vis=2	!	!LO:N:vis=2	!	!LO:N:vis=2	!LO:N:vis=2
8D\	X 6_	8b-/L	8ff\L	4.r	.	4.r	.	4.r	.	4.r	.	4.r	4.r
16r	.	8b-/	8ff\	.	.	.	.	.	.	.	.	.	.
16D\LL	.	.	.	.	.	.	.	.	.	.	.	.	.
16D\	.	8b-/J	8ff\J	.	.	.	.	.	.	.	.	.	.
16D\JJ	X X	.	.	.	.	.	.	.	.	.	.	.	.
=25	=25	=25	=25	=25	=25	=25	=25	=25	=25	=25	=25	=25	=25
8C/	X 7	8b-/L	8ee-\L	0.r	.	2.r	.	0.r	.	0.r	.	0.r	0.r
16r	.	8b-/	8ee-\	.	.	.	.	.	.	.	.	.	.
16F\LL	X n	.	.	.	.	.	.	.	.	.	.	.	.
16F\	.	8an/J	8ee-\J	.	.	.	.	.	.	.	.	.	.
16F\JJ	.	.	.	.	.	.	.	.	.	.	.	.	.
8BB-/	.	8b-/L	8dd\L	.	.	.	.	.	.	.	.	.	.
16r	.	8f/	8cc\	.	.	.	.	.	.	.	.	.	.
16FF/LL	X n	.	.	.	.	.	.	.	.	.	.	.	.
16FF/	.	8an/J	8ff\J	.	.	.	.	.	.	.	.	.	.
16FF/JJ	.	.	.	.	.	.	.	.	.	.	.	.	.
!LO:LB:g=original	!	!	!	!	!	!	!	!	!	!	!	!	!
=26	=26	=26	=26	=26	=26	=26	=26	=26	=26	=26	=26	=26	=26
4BB-/	.	4b-/	4dd\	.	.	(>16B-\LL	Ge-	.	.	.	.	.	.
.	.	.	.	.	.	16c\JJ)	.	.	.	.	.	.	.
.	.	.	.	.	.	(>16d\LL	-ni-	.	.	.	.	.	.
.	.	.	.	.	.	16e-\JJ)	.	.	.	.	.	.	.
8r	.	8r	8r	.	.	8f\	-tum	.	.	.	.	.	.
!	!	!LO:N:vis=2	!LO:N:vis=2	!	!	!	!	!	!	!	!	!	!
4B-\	.	4.r	4.r	.	.	(>16d\LL	non	.	.	.	.	.	.
.	.	.	.	.	.	16f\JJ)	.	.	.	.	.	.	.
.	.	.	.	.	.	(>16e-\LL	n(on)	.	.	.	.	.	.
.	.	.	.	.	.	16d\JJ)	.	.	.	.	.	.	.
8E-\	X 6	.	.	.	.	(>16c\LL	n(on)	.	.	.	.	.	.
.	X 5	.	.	.	.	16B-\JJ)	.	.	.	.	.	.	.
=27	=27	=27	=27	=27	=27	=27	=27	=27	=27	=27	=27	=27	=27
4F\	X n	1.r	1.r	.	.	8An\L	Fa-	.	.	.	.	.	.
.	.	.	.	.	.	8c\J	.	.	.	.	.	.	.
8r	.	.	.	.	.	8F/	-ctum	.	.	.	.	.	.
!LO:N:vis=2	!	!	!	!	!	!LO:LB:g=original	!	!	!	!	!	!	!
4.r	.	.	.	.	.	16F/	Con-	.	.	.	.	.	.
.	.	.	.	.	.	16G/	-ſub-	.	.	.	.	.	.
.	.	.	.	.	.	16An\	-stan-	.	.	.	.	.	.
.	.	.	.	.	.	16B-\	-ti-	.	.	.	.	.	.
.	.	.	.	.	.	16c\	-a-	.	.	.	.	.	.
.	.	.	.	.	.	16d\	-lem	.	.	.	.	.	.
=28	=28	=28	=28	=28	=28	=28	=28	=28	=28	=28	=28	=28	=28
16C\LL	.	.	.	.	.	4e-\	Pa-	.	.	.	.	.	.
16D\	.	.	.	.	.	.	.	.	.	.	.	.	.
16E-\	.	.	.	.	.	.	.	.	.	.	.	.	.
16F\	.	.	.	.	.	.	.	.	.	.	.	.	.
16G\	.	.	.	.	.	8e-\	-tri	.	.	.	.	.	.
16An\JJ	.	.	.	.	.	.	.	.	.	.	.	.	.
8B-\L	.	.	.	.	.	8d\	per	.	.	.	.	.	.
16B-\L	.	.	.	.	.	8f\	quem	.	.	.	.	.	.
16An\J	.	.	.	.	.	.	.	.	.	.	.	.	.
8G\J	.	.	.	.	.	8B-\	Om-	.	.	.	.	.	.
=29	=29	=29	=29	=29	=29	=29	=29	=29	=29	=29	=29	=29	=29
!LO:TX:t=P:problem=mixed beam	!	!LO:N:vis=2	!LO:N:vis=2	!	!	!	!	!	!	!	!	!	!
8E-\L	.	4.r	4.r	2.r	.	16c\	-ni-	0.r	.	0.r	.	0.r	0.r
.	.	.	.	.	.	16d\	-a	.	.	.	.	.	.
8F\	X n	.	.	.	.	8.An\	Fac-	.	.	.	.	.	.
8FF/J	.	.	.	.	.	.	.	.	.	.	.	.	.
.	.	.	.	.	.	16A\	-ta	.	.	.	.	.	.
8BB-/	.	8r	8r	.	.	4B-\	sunt	.	.	.	.	.	.
16r	.	8dd\L	8gg\L	.	.	.	.	.	.	.	.	.	.
16B-\LL	X 6	.	.	.	.	.	.	.	.	.	.	.	.
16B-\	.	8g\J	8gg\J	.	.	8r	.	.	.	.	.	.	.
16B-\JJ	.	.	.	.	.	.	.	.	.	.	.	.	.
=30	=30	=30	=30	=30	=30	=30	=30	=30	=30	=30	=30	=30	=30
!	!	!	!	!LO:N:vis=2	!	!	!	!	!	!	!	!	!
!	!	!	!	!LO:TX:a:i:t=Solo	!	!	!	!	!	!	!	!	!
8An\	X 6\	8cc\L	8ff#X\L	4.r	.	0.r	.	.	.	.	.	.	.
16r	.	8b-\	8gg\	.	.	.	.	.	.	.	.	.	.
16G\LL	.	.	.	.	.	.	.	.	.	.	.	.	.
16G\	.	8b-\J	8aa-\J	.	.	.	.	.	.	.	.	.	.
16G\JJ	.	.	.	.	.	.	.	.	.	.	.	.	.
8D/	X 4	4an/	4gg\	8r	.	.	.	.	.	.	.	.	.
16r	.	.	.	8r	.	.	.	.	.	.	.	.	.
16D/LL	X #	.	.	.	.	.	.	.	.	.	.	.	.
16D/	.	8a/	8ff#X\	8d\	Qui	.	.	.	.	.	.	.	.
16D/JJ	.	.	.	.	.	.	.	.	.	.	.	.	.
!	!	!LO:LB:g=original	!	!	!	!	!	!	!	!	!	!	!
=31	=31	=31	=31	=31	=31	=31	=31	=31	=31	=31	=31	=31	=31
8GG/	.	8g/	8gg\	8B-\	pro-	.	.	.	.	.	.	.	.
8r	.	8r	8r	(>16B-\LL	-pter	.	.	.	.	.	.	.	.
.	.	.	.	16An\JJ)	.	.	.	.	.	.	.	.	.
8G\	.	8dd\	8gg\	(>16B-\LL	nos	.	.	.	.	.	.	.	.
.	.	.	.	16G\JJ)	.	.	.	.	.	.	.	.	.
!	!	!	!LO:LB:g=original	!	!	!	!	!	!	!	!	!	!
8D\	X #_	8dd\	8ff#X\	(>16AnX\LL	ho-	.	.	.	.	.	.	.	.
.	.	.	.	16G\JJ)	.	.	.	.	.	.	.	.	.
8r	.	8r	8r	(>16F#X\LL	-mi-	.	.	.	.	.	.	.	.
.	.	.	.	16E-\JJ)	.	.	.	.	.	.	.	.	.
8D\	X X	8g/	8ff#\	8D/)	-nes	.	.	.	.	.	.	.	.
!LO:LB:g=original	!	!	!	!	!	!	!	!	!	!	!	!	!
=32	=32	=32	=32	=32	=32	=32	=32	=32	=32	=32	=32	=32	=32
8BB-/	X 6_	8b-/	8gg\	16G\LL	et	.	.	.	.	.	.	.	.
.	.	.	.	16An\JJ	.	.	.	.	.	.	.	.	.
8r	.	8r	8r	16B-\LL	prop-	.	.	.	.	.	.	.	.
.	X X	.	.	16c\JJ	.	.	.	.	.	.	.	.	.
8BB-/	.	8g/	8dd\	16d\LL	-ter	.	.	.	.	.	.	.	.
.	.	.	.	16G\JJ	.	.	.	.	.	.	.	.	.
8C/	X 5	8g/	8ee-\	16c\LL	no-	.	.	.	.	.	.	.	.
.	.	.	.	16d\JJ	.	.	.	.	.	.	.	.	.
8r	.	8r	8r	16c\LL	-stram	.	.	.	.	.	.	.	.
.	.	.	.	16B-\JJ	.	.	.	.	.	.	.	.	.
8C/	X 6\	8cc\	8ee-\	16A\LL	ſa-	.	.	.	.	.	.	.	.
.	.	.	.	16G\JJ	.	.	.	.	.	.	.	.	.
!	!	!	!	!LO:LB:g=original	!	!	!	!	!	!	!	!	!
=33	=33	=33	=33	=33	=33	=33	=33	=33	=33	=33	=33	=33	=33
8D\	X #_	8f#X/	8an/	8F#X\	-lu-	.	.	0.r	.	0.r	.	0.r	0.r
8r	.	8r	8r	8D/	-tem	.	.	.	.	.	.	.	.
8D\	.	8an/	8dd\	8d\	de-	.	.	.	.	.	.	.	.
8E-\	X 7	8g/	8b-\	8d\	-ſcen-	.	.	.	.	.	.	.	.
8r	.	8r	8r	16c\LL	.	.	.	.	.	.	.	.	.
.	.	.	.	16B-\	.	.	.	.	.	.	.	.	.
!	!	!	!	!LO:TX:a:t=P:problem=♮ above	!	!	!	!	!	!	!	!	!
8C/	.	8e-/	8cc\	16An\	.	.	.	.	.	.	.	.	.
.	.	.	.	16G\JJ	.	.	.	.	.	.	.	.	.
=34	=34	=34	=34	=34	=34	=34	=34	=34	=34	=34	=34	=34	=34
8D/L	X #	8d/	8an/	4F#X\	.	0.r	.	.	.	.	.	.	.
8C/	.	8r	8r	.	.	.	.	.	.	.	.	.	.
8BB-/J	X 6	8g/	8b-/	8G\	-dit	.	.	.	.	.	.	.	.
8C/L	6 5	8g/	8a/	8C/	de	.	.	.	.	.	.	.	.
8D/	X #	4f#X/	4a/	4D/	Cae-	.	.	.	.	.	.	.	.
8DD/J	.	.	.	.	.	.	.	.	.	.	.	.	.
=35	=35	=35	=35	=35	=35	=35	=35	=35	=35	=35	=35	=35	=35
!	!	!	!LO:TX:t=P:problem=mixed beam	!	!	!	!	!	!	!	!	!	!
8GG/	.	8g/L	8g/L	4GG/	-lis	.	.	.	.	.	.	.	.
16r	.	8b-/	8dd\	.	.	.	.	.	.	.	.	.	.
16G\LL	.	.	.	.	.	.	.	.	.	.	.	.	.
16G\	.	8b-/J	8dd\J	8r	.	.	.	.	.	.	.	.	.
16G\JJ	.	.	.	.	.	.	.	.	.	.	.	.	.
!	!	!	!	!LO:N:vis=2	!	!	!	!	!	!	!	!	!
8F#X\	X 6_	8an/L	8dd\L	4.r	.	.	.	.	.	.	.	.	.
16r	.	8a/	8dd\	.	.	.	.	.	.	.	.	.	.
16Fn\LL	.	.	.	.	.	.	.	.	.	.	.	.	.
16F\	.	8a/J	8dd\J	.	.	.	.	.	.	.	.	.	.
16F\JJ	.	.	.	.	.	.	.	.	.	.	.	.	.
=36	=36	=36	=36	=36	=36	=36	=36	=36	=36	=36	=36	=36	=36
8E-\	X 7	8g/L	8dd\L	1.r	.	.	.	.	.	.	.	.	.
16r	.	8g/	8cc\	.	.	.	.	.	.	.	.	.	.
16E-\LL	X 6	.	.	.	.	.	.	.	.	.	.	.	.
16E-\	.	8g/J	8cc\J	.	.	.	.	.	.	.	.	.	.
16E-\JJ	.	.	.	.	.	.	.	.	.	.	.	.	.
8D\	7 #	8f#X/L	8cc\L	.	.	.	.	.	.	.	.	.	.
16r	.	8g/	8b-\	.	.	.	.	.	.	.	.	.	.
16G\LL	.	.	.	.	.	.	.	.	.	.	.	.	.
16G\	.	8g/J	8b-\J	.	.	.	.	.	.	.	.	.	.
16G\JJ	.	.	.	.	.	.	.	.	.	.	.	.	.
!LO:LB:g=original	!	!	!	!	!	!	!	!	!	!	!	!	!
=37	=37	=37	=37	=37	=37	=37	=37	=37	=37	=37	=37	=37	=37
8D\	X 4	8g/	8an/	.	.	.	.	2.r	.	2.r	.	2.r	2.r
16r	.	4f#X/	4a/	.	.	.	.	.	.	.	.	.	.
16D\LL	X #	.	.	.	.	.	.	.	.	.	.	.	.
16D\	.	.	.	.	.	.	.	.	.	.	.	.	.
16D\JJ	.	.	.	.	.	.	.	.	.	.	.	.	.
4GG/	.	4g/	4g/	.	.	.	.	.	.	.	.	.	.
8r	.	8r	8r	.	.	.	.	.	.	.	.	.	.
!	!	!LO:LB:g=original	!LO:LB:g=original	!	!	!	!	!LO:LB:g=original	!	!	!	!LO:PB:g=original	!
=38||	=38||	=38||	=38||	=38||	=38||	=38||	=38||	=38||	=38||	=38||	=38||	=38||	=38||
*M4/4	*	*M4/4	*M4/4	*M4/4	*	*M4/4	*	*M4/4	*	*M4/4	*	*M4/4	*M4/4
*met(c)	*	*met(c)	*met(c)	*met(c)	*	*met(c)	*	*met(c)	*	*met(c)	*	*met(c)	*met(c)
!LO:TX:b:i:t=Et Incarnatus	!	!LO:TX:b:i:t=Et Incarnatus	!LO:TX:b:i:t=Et Incarnatus	!	!	!	!	!	!	!LO:TX:a:i:t=Tutti	!	!	!
!	!	!	!	!	!	!	!	!	!	!	!	!LO:TX:b:i:t=Et Incarnatus	!
8r	.	8r	8r	8r	.	8r	.	8r	.	8r	.	8r	8r
8E-\L	.	8e-/L	8b-\L	8E-\	Et	16G/LL	Et	8g\	Et	8b-\	Et	8gg\L	8bb-\L
.	.	.	.	.	.	16A-/JJ	.	.	.	.	.	.	.
8E-\	.	8g/	8b-\	8E-\	In-	8B-\	in-	8g\	in-	8b-\	in-	8gg\	8bb-\
8E-\J	.	8b-/J	8ee-\J	8E-\	-ca-	8B-\	-car-	8g\	-car-	8ee-\	-car-	8ee-\J	8gg\J
4A-\	X 6	4.e-/	8cc\L	8A-\	-na-	8c\	-na-	8e-\	-na-	8cc\	-na-	4.ee-\	4ccc\
.	.	.	8ee-\	8A-\	-tus	8c\	-tus	8e-\	-tus	8ee-\	-tus	.	.
4G\	.	.	8b-\	8G\	in-	8B-\	In-	8e-\	In-	8b-\	eſt	.	4bb-\
.	.	8b-/	8ee-\J	8G\	-car-	8B-\	-car-	8e-\	-car-	8ee-\	in-	8ee-\	.
!	!	!	!	!	!	!LO:LB:g=original	!	!	!	!	!	!	!
=39	=39	=39	=39	=39	=39	=39	=39	=39	=39	=39	=39	=39	=39
4.F\	X 7	4.a-X/	4.ee-\	4.F\	-na-	4.c\	-na-	4.a-\	-na-	4.ee-\	-car-	4.ff\	4.aa-\
.	X 6	.	.	.	.	.	.	.	.	.	.	.	.
8F\	.	8a-/	8dd\	8F\	-tus	8f\	-tus	8a-\	-tus	8dd\	-na-	8ff\	8aa-\
!	!	!	!LO:TX:t=P:problem=mixed beam	!	!	!	!	!	!	!	!	!	!
8E-\	.	8g/L	8ee-\L	8E-\	est	8B-\	est	8g\	est	8ee-\	-tus	8b-/	4gg\
8r	.	8e-/	8e-/	8r	.	8r	.	8g\	de	8b-\	de	8r	.
4r	.	8e-/	8e-/	4r	.	4r	.	8a-\	Spi-	8cc\	Spi-	4r	4r
.	.	8e-/J	8e-/J	.	.	.	.	16g\	-ri-	16b-\	-ri-	.	.
.	.	.	.	.	.	.	.	16f\	-tu	16a-\	-tu	.	.
!	!	!	!	!LO:LB:g=original	!	!	!	!	!	!LO:LB:g=original	!	!	!
=40	=40	=40	=40	=40	=40	=40	=40	=40	=40	=40	=40	=40	=40
8r	.	8e-/L	8e-/L	8r	.	8r	.	8g\	San-	8b-\	San-	8r	8r
8E-\L	6 4	8e-/J	8e-/J	8E-\	De	8B-\	De	8e-\	-cto	8g\	-cto	8e-/L	8e-/L
8E-\	.	4r	4r	8A-\	Spi-	8c\	Spi-	4r	.	4r	.	8e-/	8e-/
8E-\J	5 3	.	.	16G\	-ri-	16B-\	-ri-	.	.	.	.	8e-/J	8e-/J
!	!	!	!	!LO:N:vis=4	!	!	!	!	!	!	!	!	!
.	.	.	.	16F\	-tu	16A-X\	-tu	.	.	.	.	.	.
8E-\L	.	4r	4r	8G\	San-	8B-\	San-	4r	.	4r	.	8e-/L	8e-/L
8E-\J	.	.	.	8E-\	-cto	8G/	-cto	.	.	.	.	8e-/J	8e-/J
4r	.	8e-/L	8e-/L	4r	.	4r	.	8a-\	Ex	8cc\	ex	4ryy	4r
.	.	8e-/J	8e-/J	.	.	.	.	(>16g\LL	ma-	(>16b-\LL	Ma-	.	.
.	.	.	.	.	.	.	.	16f\JJ)	.	16a-\JJ)	.	.	.
!	!	!	!	!	!	!	!	!	!	!	!	!	!LO:LB:g=original
=41	=41	=41	=41	=41	=41	=41	=41	=41	=41	=41	=41	=41	=41
4r	.	8e-/L	8e-/L	4r	.	4r	.	8g\	-ri-	8b-\	-ri-	4r	4r
.	.	8e-/J	8e-/J	.	.	.	.	8e-\	-a	8g\	-a	.	.
8E-\L	6 4	4r	4r	8A-\	Ex	8c\	Ex	4r	.	4r	.	8e-/L	8e-/L
8E-\J	5 3	.	.	16G\LL	Ma-	16B-\LL	Ma-	.	.	.	.	8e-/J	8e-/J
.	.	.	.	16F\JJ	.	16A-\JJ	.	.	.	.	.	.	.
!	!	!	!	!	!	!	!	!	!	!	!	!LO:TX:t=P:problem=mixed beam	!
8E-\L	.	4r	4r	8G\	-ri-	8B-\	-ri-	4r	.	4r	.	8e-/L	8e-/L
8E-\	.	.	.	8E-\	-a	8G\	-a	.	.	.	.	8e-/	8e-/J
8G\	.	8e-/L	8b-\L	8G\	ex	8B-\	Vir-	8e-\	ex	8b-\	ex	8ee-\	8bb-\L
8E-\J	.	8g/J	8ee-\J	8E-\	Ma-	8G\	-gi-	8e-\	Ma-	8b-\	Ma-	8gg\J	8bb-\J
!	!	!	!	!	!	!	!	!LO:LB:g=original	!	!	!	!	!
=42	=42	=42	=42	=42	=42	=42	=42	=42	=42	=42	=42	=42	=42
4A-\	.	4.e-/	8cc\L	4A-\	-ri-	4c\	-ne	4e-\	-ri-	8cc\L	-ri-	4.ee-\	4ccc\
.	.	.	8ee-\	.	.	.	.	.	.	8ee-\J	.	.	.
4G\	X 6	.	8cc\	4G\	-a	4B-\	et	4e-\	-a	8b-\L	-a	.	4bb-\
.	.	8b-/	8ee-\J	.	.	.	.	.	.	8ee-\J	.	8ee-\	.
4.F\	X 7	4.a-/	4.ee-T\	4.F\	Vir-	4.c\	Ho-	4.e-\	Vir-	4.ee-\	Vir-	4.ff\	4.aa-\
8F\	X 6	8a-/	8dd\	8F\	-gi-	8f\	-mo	8d\	-gi-	8dd\	-gi-	8ff\	8aa-\
!LO:LB:g=original	!	!	!	!	!	!	!	!	!	!	!	!	!
=43	=43	=43	=43	=43	=43	=43	=43	=43	=43	=43	=43	=43	=43
4E-\	.	4g/	4ee-\	4E-\	-ne	4B-\	Ho-	4e-\	-ne	4ee-\	-ne	4b-/	4gg\
4G\	.	4d/	4b-/	4G\	et	4B-\	-mo	4d\	et	4b-\	et	4gg\	4bb-\
4c\	X 7	4e-/	4b-/	4c\	Ho-	4G/	Ho-	4e-\	Ho-	4b-\	Ho-	4ee-\	4bb-\
4F\	X 7	4e-/	4a-/	4F\	-mo	4A-/	-mo	4e-\	-mo	4a-\	-mo	4ff\	4aa-\
!	!	!	!	!	!	!	!	!	!	!	!	!LO:LB:g=original	!
=44	=44	=44	=44	=44	=44	=44	=44	=44	=44	=44	=44	=44	=44
!	!	!	!	!	!	!	!	!	!	!	!	!LO:TX:t=P:problem=mixed beam	!
4B-\	X 7	4d/	4a-/	4B-\	Ho-	4F/	Ho-	4d\	Ho-	4a-\	Ho-	8ff\L	4aa-\
.	.	.	.	.	.	.	.	.	.	.	.	8b-/	.
4E-\	.	4e-/	8g/L	4E-\	-mo	4G/	-mo	4e-\	-mo	8g/L	-mo	8b-/	8gg\L
.	.	.	8f/J	.	.	.	.	.	.	8f/J	.	8b-/J	8ff\J
*	*	*	*	*	*	*	*	*	*	*	*	*	*2\right
!	!	!	!LO:LB:g=original	!	!	!LO:LB:g=original	!	!	!	!	!	!	!
2BB-/	X 4	4.e-/	4.f/	4.BB-/	fac-	4.B-\	Fac-	4.e-\	Fac-	4.f/	fac-	2b-/	2ff\
.	X 3	8d/	8f/	8BB-/	-tus	8B-\	-tus	8d\	-tus	8f/	-tus	.	.
=45	=45	=45	=45	=45	=45	=45	=45	=45	=45	=45	=45	=45	=45
*2\right	*	*	*	*2\right	*	*2\right	*	*2\right	*	*	*	*	*
2E-\	.	2e-/	2e-/	2E-\	est	2B-\	est	2e-\	est	2g/	est	2g/	2ee-\
2r	.	2r	2r	2r	.	2r	.	2r	.	2r	.	2r	2r
!	!	!LO:LB:g=original	!	!	!	!	!	!	!	!	!	!	!
=46	=46	=46	=46	=46	=46	=46	=46	=46	=46	=46	=46	=46	=46
!	!	!	!	!	!	!	!	!	!	!LO:TX:a:i:t=Solo	!	!	!
8A-\L	.	1r	1r	1r	.	1r	.	1r	.	4.a-\	Cru-	00r	00r
8B-\	.	.	.	.	.	.	.	.	.	.	.	.	.
8c\	.	.	.	.	.	.	.	.	.	.	.	.	.
8A-\J	.	.	.	.	.	.	.	.	.	8cc\	-ci-	.	.
8G\L	X 6_	.	.	.	.	.	.	.	.	4.b-\	-fi-	.	.
8F\	.	.	.	.	.	.	.	.	.	.	.	.	.
8G\	.	.	.	.	.	.	.	.	.	.	.	.	.
8E-\J	.	.	.	.	.	.	.	.	.	8ee-\	-xus	.	.
!	!	!	!	!LO:LB:g=original	!	!	!	!	!	!LO:LB:g=original	!	!	!
=47	=47	=47	=47	=47	=47	=47	=47	=47	=47	=47	=47	=47	=47
4A-\	X X	8r	8r	8r	.	8r	.	8r	.	8cc\	e-	.	.
!	!	!LO:N:vis=8	!LO:N:vis=8	!	!	!	!	!	!	!	!	!	!
.	.	16A-/LL	16A-X/LL	16A-\	E-	16c\	e-	16e-\	e-	16a-\	-ti-	.	.
!	!	!LO:N:vis=8	!LO:N:vis=8	!	!	!	!	!	!	!	!	!	!
.	.	16A-/JJ	16A-/JJ	16A-\	-ti-	16c\	-ti-	16e-\	-ti-	16a-\	-am	.	.
4r	.	8A-/L	8A-/L	8A-\	-am	8c\	-am	8e-\	-am	4r	.	.	.
.	.	8A-/J	8A-/J	8C/	pro	16e-\LL	pro	8e-\	pro	.	.	.	.
.	.	.	.	.	.	16c\JJ	.	.	.	.	.	.	.
2r	.	8G/L	8G/L	2E-\	no-	2B-\	no-	2e-\	no-	2r	.	.	.
.	.	8G/	8G/	.	.	.	.	.	.	.	.	.	.
.	.	8G/	8G/	.	.	.	.	.	.	.	.	.	.
.	.	8G/J	8G/J	.	.	.	.	.	.	.	.	.	.
=48	=48	=48	=48	=48	=48	=48	=48	=48	=48	=48	=48	=48	=48
8A-\L	.	4A-/	4A-X/	4AA-/	-bis	4c\	-bis	4e-\	-bis	8a-\	Cru-	.	.
8B-\	.	.	.	.	.	.	.	.	.	8a-\	-fi-	.	.
8c\	.	4r	4r	4r	.	4r	.	4r	.	(>16a-\LL	.	.	.
.	.	.	.	.	.	.	.	.	.	16b-\JJ)	.	.	.
8A-\J	.	.	.	.	.	.	.	.	.	(>16cc\LL	-xus	.	.
.	.	.	.	.	.	.	.	.	.	16dd\JJ)	.	.	.
8G\L	X 6_	2r	2r	2r	.	2r	.	2r	.	8b-\	e-	.	.
8F\	.	.	.	.	.	.	.	.	.	8b-\	-ti-	.	.
8G\	.	.	.	.	.	.	.	.	.	(>16b-\LL	-am	.	.
.	.	.	.	.	.	.	.	.	.	16cc\JJ)	.	.	.
8E-\J	.	.	.	.	.	.	.	.	.	(>16dd\LL	pro	.	.
.	X X	.	.	.	.	.	.	.	.	16ee-\JJ)	.	.	.
=49	=49	=49	=49	=49	=49	=49	=49	=49	=49	=49	=49	=49	=49
4A-\	.	8r	8r	8r	.	8r	.	8r	.	8cc\	no-	.	.
.	.	16A-/LL	16A-/LL	16A-\	e-	16c\	e-	16e-\	e-	8a-\	-bis	.	.
.	.	16A-/JJ	16A-/JJ	16A-\	-ti-	16c\	-ti-	16e-\	-ti-	.	.	.	.
4r	.	8A-/L	8A-/L	8A-\	-am	8c\	-am	8e-\	-am	4r	.	.	.
.	.	8A-/J	8A-/J	8C/	pro	16e-\LL	pro	8e-\	pro	.	.	.	.
.	.	.	.	.	.	16c\JJ	.	.	.	.	.	.	.
!	!	!	!	!	!	!	!	!LO:LB:g=original	!	!	!	!	!
2r	.	8G/L	8G/L	2E-\	no-	2B-\	no-	2e-\	no-	2r	.	.	.
.	.	8G/	8G/	.	.	.	.	.	.	.	.	.	.
.	.	8G/	8G/	.	.	.	.	.	.	.	.	.	.
.	.	8G/J	8G/J	.	.	.	.	.	.	.	.	.	.
=50	=50	=50	=50	=50	=50	=50	=50	=50	=50	=50	=50	=50	=50
8r	.	4A-/	4A-/	4AA-/	-bis	4c\	-bis	4e-\	-bis	4r	.	00r	00r
8C/L	X 6	.	.	.	.	.	.	.	.	.	.	.	.
8C/	.	4r	4r	4r	.	4r	.	4r	.	4ee-\	Sub	.	.
8C/J	.	.	.	.	.	.	.	.	.	.	.	.	.
4D/	.	2r	2r	2r	.	2r	.	2r	.	8.ff\	Pon-	.	.
.	.	.	.	.	.	.	.	.	.	16ee-\	-ti-	.	.
8r	.	.	.	.	.	.	.	.	.	(>16dd-X\LL	-ot	.	.
.	.	.	.	.	.	.	.	.	.	16cc\JJ)	.	.	.
8D/	.	.	.	.	.	.	.	.	.	(>16b-\LL	Pi-	.	.
.	.	.	.	.	.	.	.	.	.	16a-\JJ)	.	.	.
=51	=51	=51	=51	=51	=51	=51	=51	=51	=51	=51	=51	=51	=51
4E-\	.	8r	8r	8r	.	8r	.	8r	.	8g/	-la-	.	.
.	.	16e-/LL	16e-/LL	16E-\	e-	16B-\	e-	16g\	e-	8e-/	-to	.	.
.	.	16e-/JJ	16e-/JJ	16E-\	-ti-	16B-\	-ti-	16g\	-ti-	.	.	.	.
4r	.	8e-/L	8e-/L	8E-\	-am	8B-\	-am	8g\	-am	4r	.	.	.
.	.	8e-/J	8e-/J	8E-\	pro	8B-\	pro	8g\	pro	.	.	.	.
2r	.	8A-/L	8A-X/L	2A-\	no-	2c\	no-	2e-\	no-	2r	.	.	.
.	.	8A-/	8A-/	.	.	.	.	.	.	.	.	.	.
.	.	8A-/	8A-/	.	.	.	.	.	.	.	.	.	.
.	.	8A-/J	8A-/J	.	.	.	.	.	.	.	.	.	.
!LO:LB:g=original	!	!	!	!	!	!LO:LB:g=original	!	!	!	!LO:LB:g=original	!	!	!
=52	=52	=52	=52	=52	=52	=52	=52	=52	=52	=52	=52	=52	=52
8r	.	4e-/	4e-/	8E-\	-bis	8B-\	-bis	8g\	-bis	8r	.	.	.
8C/L	X 6_	.	.	8r	.	8r	.	8r	.	(>16a-\LL	Pas-	.	.
.	.	.	.	.	.	.	.	.	.	16b-\JJ)	.	.	.
!	!	!	!	!	!	!	!	!LO:N:vis=2	!	!	!	!	!
8C/	.	4r	4r	4r	.	4r	.	2.r	.	16cc\LL	.	.	.
.	.	.	.	.	.	.	.	.	.	16b-\	.	.	.
8C/J	.	.	.	.	.	.	.	.	.	16a-\	.	.	.
.	XX	.	.	.	.	.	.	.	.	16g\JJ	.	.	.
8D-X\L	X 6_	2r	2r	2r	.	2r	.	.	.	16f\LL	.	.	.
.	.	.	.	.	.	.	.	.	.	16b-\	.	.	.
8D-\	.	.	.	.	.	.	.	.	.	16a-\	.	.	.
.	.	.	.	.	.	.	.	.	.	16b-\JJ	.	.	.
8D-\	.	.	.	.	.	.	.	.	.	16f\LL	.	.	.
.	.	.	.	.	.	.	.	.	.	16b-\	.	.	.
8D-\J	.	.	.	.	.	.	.	.	.	16a-\	.	.	.
.	X X	.	.	.	.	.	.	.	.	16b-\JJ	.	.	.
!	!	!	!LO:LB:g=original	!	!	!	!	!	!	!	!	!	!
=53	=53	=53	=53	=53	=53	=53	=53	=53	=53	=53	=53	=53	=53
8E-\L	X 6_	1r	1r	1r	.	1r	.	1r	.	16g\LL	.	.	.
.	.	.	.	.	.	.	.	.	.	16cc\	.	.	.
8E-\	.	.	.	.	.	.	.	.	.	16b-\	.	.	.
.	.	.	.	.	.	.	.	.	.	16cc\JJ	.	.	.
8E-\	.	.	.	.	.	.	.	.	.	16g\LL	.	.	.
.	.	.	.	.	.	.	.	.	.	16cc\	.	.	.
8E-\J	.	.	.	.	.	.	.	.	.	16b-\	.	.	.
.	X X	.	.	.	.	.	.	.	.	16cc\JJ	.	.	.
8F\L	X 6-_	.	.	.	.	.	.	.	.	16a-\LL	.	.	.
.	.	.	.	.	.	.	.	.	.	16dd-X\	.	.	.
8F\	.	.	.	.	.	.	.	.	.	16cc\	.	.	.
.	.	.	.	.	.	.	.	.	.	16dd-\JJ	.	.	.
8F\	.	.	.	.	.	.	.	.	.	16a-\LL	.	.	.
.	.	.	.	.	.	.	.	.	.	16dd-X\	.	.	.
8F\J	.	.	.	.	.	.	.	.	.	16cc\	.	.	.
.	X X	.	.	.	.	.	.	.	.	16dd-\JJ	.	.	.
=54	=54	=54	=54	=54	=54	=54	=54	=54	=54	=54	=54	=54	=54
8G\L	X 6_	2r	2r	2r	.	2r	.	2r	.	16b-\LL	.	00r	00r
.	.	.	.	.	.	.	.	.	.	16ee-\	.	.	.
8G\	.	.	.	.	.	.	.	.	.	16dd-X\	.	.	.
.	.	.	.	.	.	.	.	.	.	16ee-\JJ	.	.	.
8G\	.	.	.	.	.	.	.	.	.	16b-\LL	.	.	.
.	.	.	.	.	.	.	.	.	.	16ee-\	.	.	.
8G\J	.	.	.	.	.	.	.	.	.	16dd-X\	.	.	.
.	X X	.	.	.	.	.	.	.	.	16ee-\JJ	.	.	.
4A-\	.	8r	8r	8r	.	8r	.	8r	.	8cc\	.	.	.
.	.	8A-X/L	8A-/L	16A-\	e-	16c\	e-	16e-\	e-	8a-\	-sus	.	.
.	.	.	.	16A-\	-ti-	16c\	-ti-	16e-\	-ti-	.	.	.	.
!	!	!	!	!	!	!LO:N:vis=16	!	!	!	!	!	!	!
4r	.	8A-/	8A-/	8A-\	-am	8c\	-am	8e-\	-am	4r	.	.	.
.	.	8A-/J	8A-/J	8C/	pro	16e-\LL	pro	8e-\	pro	.	.	.	.
.	.	.	.	.	.	16c\JJ	.	.	.	.	.	.	.
!	!	!LO:LB:g=original	!	!LO:LB:g=original	!	!	!	!	!	!	!	!	!
=55	=55	=55	=55	=55	=55	=55	=55	=55	=55	=55	=55	=55	=55
2r	.	8G/L	8G/L	2E-\	no-	2B-\	no-	2e-\	no-	2r	.	.	.
.	.	8G/	8G/	.	.	.	.	.	.	.	.	.	.
.	.	8G/	8G/	.	.	.	.	.	.	.	.	.	.
.	.	8G/J	8G/J	.	.	.	.	.	.	.	.	.	.
8r	.	8A-/	8A-/	4AA-/	-bis	4c\	-bis	4e-\	-bis	8r	.	.	.
8C/L	X 6_	8r	8r	.	.	.	.	.	.	16a-X\LL	Pas-	.	.
.	.	.	.	.	.	.	.	.	.	16b-\JJ	.	.	.
!	!	!	!	!	!	!	!	!	!	!LO:PB:g=original	!	!	!
8C/	.	4r	4r	4r	.	4r	.	4r	.	16cc\LL	.	.	.
.	.	.	.	.	.	.	.	.	.	16dd-X\	.	.	.
8C/J	.	.	.	.	.	.	.	.	.	16ee-\	.	.	.
.	X X	.	.	.	.	.	.	.	.	16cc\JJ	.	.	.
=56	=56	=56	=56	=56	=56	=56	=56	=56	=56	=56	=56	=56	=56
8D-X\L	X 5_	1r	1r	1r	.	1r	.	1r	.	8.ff\L	-ſus	.	.
8D-\	.	.	.	.	.	.	.	.	.	.	.	.	.
.	.	.	.	.	.	.	.	.	.	16ee-\Jk	.	.	.
8D-\	.	.	.	.	.	.	.	.	.	(>16dd-X\LL	et	.	.
.	.	.	.	.	.	.	.	.	.	16cc\JJ)	.	.	.
!	!	!	!	!	!	!	!	!LO:TX:a:t=1	!	!	!	!	!
8D-\J	.	.	.	.	.	.	.	.	.	(>16b-\LL	ſe-	.	.
.	X X	.	.	.	.	.	.	.	.	16a-\JJ)	.	.	.
16E-\LL	.	.	.	.	.	.	.	.	.	8g/	-pul-	.	.
16F\	.	.	.	.	.	.	.	.	.	.	.	.	.
16E-\	.	.	.	.	.	.	.	.	.	8e-/	-tus	.	.
16D-X\JJ	.	.	.	.	.	.	.	.	.	.	.	.	.
8C/L	X 6	.	.	.	.	.	.	.	.	[<4a-\	et	.	.
8AA-/J	.	.	.	.	.	.	.	.	.	.	.	.	.
=57	=57	=57	=57	=57	=57	=57	=57	=57	=57	=57	=57	=57	=57
8D-X/L	.	2r	2r	2r	.	2r	.	2r	.	8a-\]	.	.	.
8BB-/J	.	.	.	.	.	.	.	.	.	(>16b-\LL	ſe-	.	.
.	.	.	.	.	.	.	.	.	.	16cc\JJ)	.	.	.
!LO:TX:t=P:problem=mixed beam	!	!	!	!	!	!	!	!	!	!	!	!	!
8E-\L	.	.	.	.	.	.	.	.	.	8.g\	-pul-	.	.
8EE-/J	.	.	.	.	.	.	.	.	.	.	.	.	.
.	.	.	.	.	.	.	.	.	.	16g\	-tus	.	.
8AA-/	.	8r	8r	8r	.	8r	.	8r	.	4a-\	eſt	.	.
8r	.	8A-/L	8c/L	16A-\	e-	16c\	e-	16e-\	e-	.	.	.	.
.	.	.	.	16A-\	-ti-	16c\	-ti-	16e-\	-ti-	.	.	.	.
4r	.	8A-/	8c/	8A-\	-am	8c\	-am	8e-\	-am	8r	.	.	.
.	.	8G/J	8B-/J	8E-\	pro	8G/	pro	8e-\	pro	8b-\	pro	.	.
!	!	!	!	!	!	!	!	!LO:LB:g=original	!	!	!	!	!
=58	=58	=58	=58	=58	=58	=58	=58	=58	=58	=58	=58	=58	=58
*	*	*	*	*	*	*	*	*	*	*2\right	*	*	*
1r	.	2A-/	2c/	2AA-X/	no-	2G/	no-	2e-\	no-	2cc\	no-	1r	1r
.	.	2G/	2B-/	2E-\	-bis	2G/	-bis	2e-\	-bis	2b-\	-bis	.	.
!LO:LB:g=original	!	!	!	!	!	!LO:PB:g=original	!	!	!	!	!	!	!
=59||	=59||	=59||	=59||	=59||	=59||	=59||	=59||	=59||	=59||	=59||	=59||	=59||	=59||
*M2/4	*	*M2/4	*M2/4	*M2/4	*	*M2/4	*	*M2/4	*	*M2/4	*	*M2/4	*M2/4
!LO:TX:b:i:t=Et resurrexit.	!	!LO:TX:b:i:t=Et resurrexit.	!LO:TX:b:i:t=Et resurrexit.	!	!	!	!	!	!	!	!	!	!
1r	.	8r	8r	1r	.	1r	.	1r	.	1r	.	1r	1r
.	.	8e-/	8e-/	.	.	.	.	.	.	.	.	.	.
.	.	16e-/LL	16e-/LL	.	.	.	.	.	.	.	.	.	.
.	.	16f/	16f/	.	.	.	.	.	.	.	.	.	.
.	.	16g/	16g/	.	.	.	.	.	.	.	.	.	.
.	.	16e-/JJ	16e-/JJ	.	.	.	.	.	.	.	.	.	.
=60	=60	=60	=60	=60	=60	=60	=60	=60	=60	=60	=60	=60	=60
.	.	8b-\L	8b-\L	.	.	.	.	.	.	.	.	.	.
.	.	8b-\J	8b-\J	.	.	.	.	.	.	.	.	.	.
.	.	16b-\LL	16b-\LL	.	.	.	.	.	.	.	.	.	.
.	.	16cc\	16cc\	.	.	.	.	.	.	.	.	.	.
.	.	16dd\	16dd\	.	.	.	.	.	.	.	.	.	.
.	.	16b-\JJ	16b-\JJ	.	.	.	.	.	.	.	.	.	.
=61	=61	=61	=61	=61	=61	=61	=61	=61	=61	=61	=61	=61	=61
!	!	!LO:TX:t=P:problem=mixed beam	!LO:TX:t=P:problem=mixed beam	!	!	!	!	!	!	!	!	!	!
8r	.	8ee-\L	8ee-\L	8r	.	8r	.	8r	.	8r	.	8r	8r
8E-\	.	8e-/J	8e-/J	8E-\	Et	8B-\	Et	8g\	Et	8ee-\	Et	8ee-\L	8gg\L
16E-\LL	.	4r	4r	(>16E-\LL	re-	8B-\	re-	8g\	re-	8ee-\	re-	8ee-\	8gg\
16F\	.	.	.	16F\JJ)	.	.	.	.	.	.	.	.	.
16G\	.	.	.	(>16G\LL	-sur-	8B-\	-sur-	8g\	-ſur-	8ee-\	-ſur-	8ee-\J	8gg\J
16E-\JJ	.	.	.	16E-\JJ)	.	.	.	.	.	.	.	.	.
!	!	!	!	!	!	!	!	!	!	!LO:LB:g=original	!	!	!
=62	=62	=62	=62	=62	=62	=62	=62	=62	=62	=62	=62	=62	=62
!	!	!	!LO:TX:a:t=1	!	!	!	!	!	!	!	!	!	!
8B-\L	.	2r	2r	8B-\	-re-	(>16B-\LL	-re-	8f\	-re-	8dd\	-re-	8b-/L	8ff\L
.	.	.	.	.	.	16c\JJ)	.	.	.	.	.	.	.
8B-\J	.	.	.	8B-\	-xit	(>16d\LL	-xit	8f\	-xit	8dd\	-xit	8b-/	8ff\
.	.	.	.	.	.	16c\JJ)	.	.	.	.	.	.	.
16B-\LL	.	.	.	(>16B-\LL	re-	8B-\	re-	8f\	re-	(>16dd\LL	re-	8b-/	8ff\
16c\	.	.	.	16c\JJ)	.	.	.	.	.	16ee-\JJ)	.	.	.
16d\	.	.	.	(>16d\LL	-ſur-	8B-\	-sur-	8f\	-ſur-	(>16ff\LL	-ſur-	8b-/J	8ff\J
16B-\JJ	.	.	.	16B-\JJ)	.	.	.	.	.	16dd\JJ)	.	.	.
!	!	!	!LO:LB:g=original	!	!	!	!	!	!	!	!	!	!LO:LB:g=original
=63	=63	=63	=63	=63	=63	=63	=63	=63	=63	=63	=63	=63	=63
!	!	!	!	!	!	!	!	!	!	!	!	!LO:TX:t=P:problem=mixed beam	!
8e-\L	.	8r	8r	8e-\	-re-	8B-\	-re-	8g\	-re-	8ee-\	-re-	8g/L	8ee-\L
8E-\J	.	8e-/	8e-/	8E-\	-xit	8B-\	-xit	8g\	-xit	8ee-\	-xit	8gg\	8bb-\
4r	.	16e-/LL	16e-/LL	4r	.	4r	.	4r	.	4r	.	8gg\	8bb-\
.	.	16f/	16f/	.	.	.	.	.	.	.	.	.	.
.	.	16g/	16g/	.	.	.	.	.	.	.	.	8gg\J	8bb-\J
.	.	16e-/JJ	16e-/JJ	.	.	.	.	.	.	.	.	.	.
!	!	!LO:PB:g=original	!	!LO:LB:g=original	!	!	!	!	!	!	!	!	!
=64	=64	=64	=64	=64	=64	=64	=64	=64	=64	=64	=64	=64	=64
2r	.	8b-\L	8b-\L	2r	.	2r	.	2r	.	2r	.	8ff\L	8bb-\L
.	.	8b-\J	8b-\J	.	.	.	.	.	.	.	.	8ff\	8bb-\
.	.	16b-\LL	16b-\LL	.	.	.	.	.	.	.	.	8ff\	8bb-\
.	.	16cc\	16cc\	.	.	.	.	.	.	.	.	.	.
.	.	16dd\	16dd\	.	.	.	.	.	.	.	.	8ff\J	8bb-\J
.	.	16b-\JJ	16b-\JJ	.	.	.	.	.	.	.	.	.	.
=65	=65	=65	=65	=65	=65	=65	=65	=65	=65	=65	=65	=65	=65
8r	.	8ee-\L	8ee-\L	8r	.	8r	.	8r	.	8r	.	8ee-\L	8gg\L
8E-\	.	8gg\J	8gg\J	4E-\	Ter-	4B-\	Ter-	4g\	Ter-	4b-\	Ter-	8ee-\J	8gg\J
8E-\L	.	8gg\L	8gg\L	.	.	.	.	.	.	.	.	4r	4r
16D\L	.	16ff\L	16ff\L	16D/	-ti-	16B-\	-ti-	16f\	-ti-	16b-\	-ti-	.	.
16C\JJ	.	16ee-\JJ	16ee-\JJ	16C/	-a	16B-\	-a	16e-\	-a	16b-\	-a	.	.
!	!	!	!	!	!	!	!	!	!	!	!	!LO:LB:g=original	!
=66	=66	=66	=66	=66	=66	=66	=66	=66	=66	=66	=66	=66	=66
!	!	!	!	!	!	!	!	!	!	!	!	!LO:TX:a:t=3	!
8D/L	X 6	8ff\L	8ff\L	8D/	di-	8B-\	di-	8f\	di-	8b-\	di-	1r	1r
16C/L	.	16ee-\L	16ee-\L	16C/	-e	16An\	-e	16e-\	-e	16cc\	-e	.	.
16BB-/JJ	.	16dd\JJ	16dd\JJ	16BB-/	ſe-	16B-\	ſe-	16d\	ſe-	16dd\	ſe-	.	.
8C/L	.	8ee-\L	8ee-\L	8C/	-cun-	8G\	-cun-	8g\	-cun-	8ee-\	-cun-	.	.
16BBn/L	.	16dd\L	16dd\L	16BB-/	-dum	16G\	-dum	16g\	-dum	16dd\	-dum	.	.
16AAn/JJ	.	16cc\JJ	16cc\JJ	16AAn/	ſcri-	16c\	Scri-	16f\	Scri-	16cc\	Scri-	.	.
!	!	!	!	!	!	!LO:LB:g=original	!	!LO:PB:g=original	!	!	!	!	!
=67	=67	=67	=67	=67	=67	=67	=67	=67	=67	=67	=67	=67	=67
8BB-/L	.	8dd\L	8dd\L	8BB-/	-ptu-	8B-\	-ptu-	8f\	-ptu-	8dd\	-ptu-	.	.
8BB-/J	.	8b-\J	8b-\J	8BB-/	-ras	8B-\	-ras	8f\	-ras	8dd\	-ras	.	.
4r	.	16b-\LL	16b-\LL	4r	.	4r	.	4r	.	4r	.	.	.
.	.	16cc\	16cc\	.	.	.	.	.	.	.	.	.	.
.	.	16dd\	16dd\	.	.	.	.	.	.	.	.	.	.
.	.	16b-\JJ	16b-\JJ	.	.	.	.	.	.	.	.	.	.
=68	=68	=68	=68	=68	=68	=68	=68	=68	=68	=68	=68	=68	=68
2r	.	8ff\L	8ff\L	2r	.	2r	.	2r	.	2r	.	2r	2r
.	.	8ff\J	8ff\J	.	.	.	.	.	.	.	.	.	.
.	.	16ff\LL	16ff\LL	.	.	.	.	.	.	.	.	.	.
.	.	16gg\	16gg\	.	.	.	.	.	.	.	.	.	.
.	.	16aan\	16aan\	.	.	.	.	.	.	.	.	.	.
.	.	16ff\JJ	16ff\JJ	.	.	.	.	.	.	.	.	.	.
=69	=69	=69	=69	=69	=69	=69	=69	=69	=69	=69	=69	=69	=69
!	!	!LO:TX:t=P:problem=mixed beam	!LO:TX:t=P:problem=mixed beam	!	!	!	!	!	!	!	!	!	!
8r	.	8bb-\L	8bb-\L	8r	.	8r	.	8r	.	8r	.	8r	8r
8BB-/	.	8b-/J	8b-/J	4BB-/	Et	4B-\	Et	4f\	Et	4dd\	et	8ff\L	8bb-\L
16BB-/LL	.	4r	4r	.	.	.	.	.	.	.	.	8ff\	8bb-\
16C/	.	.	.	.	.	.	.	.	.	.	.	.	.
16D/	.	.	.	16D/LL	a-	8B-\	a-	8f\	a-	8dd\	a-	8ff\J	8bb-\J
16BB-/JJ	.	.	.	16BB-/JJ	.	.	.	.	.	.	.	.	.
!LO:LB:g=original	!	!	!	!	!	!	!	!	!	!	!	!	!
=70	=70	=70	=70	=70	=70	=70	=70	=70	=70	=70	=70	=70	=70
8F\L	.	2r	2r	4F\	-scen-	16An\LL	-scen-	16f\LL	-ſcen-	4cc\	-scen-	8ff\L	8aaX\L
.	.	.	.	.	.	16B-\	.	16g\	.	.	.	.	.
8F\J	.	.	.	.	.	16c\	.	16an\	.	.	.	8ff\	8aa\
.	.	.	.	.	.	16B-\JJ	.	16g\JJ	.	.	.	.	.
16F\LL	.	.	.	(>16F\LL	-dit	(>16An\LL	-dit	8f\	-dit	8cc\	-dit	8ff\	8aa\
16G\	.	.	.	16G\JJ)	.	16B-\JJ)	.	.	.	.	.	.	.
16An\	.	.	.	(>16An\LL	in	(>16c\LL	in	8f\	in	8cc\	in	8ff\J	8aa\J
16F\JJ	.	.	.	16F\JJ)	.	16A\JJ)	.	.	.	.	.	.	.
!	!	!	!	!	!	!	!	!	!	!LO:LB:g=original	!	!	!
=71	=71	=71	=71	=71	=71	=71	=71	=71	=71	=71	=71	=71	=71
!LO:TX:t=P:problem=mixed beam	!	!	!	!	!	!	!	!	!	!	!	!	!
8B-\L	.	8r	8r	8B-\	Cae-	8B-\	Cae-	8f\	Cae-	8dd\	Cae-	8ff\L	8bb-\L
8BB-/J	.	8dd\	8dd\	8BB-/	-lum	8B-\	-lum	8f\	-lum	8dd\	-lum	8ff\J	8bb-\J
8B-\L	.	8dd\L	8dd\L	8B-\	ſe-	8F/	se-	8f\	ſe-	8dd\	ſe-	4r	4r
16An\L	.	16cc\L	16cc\L	16An\	-det	16F/	-det	16f\	-det	16cc\	-det	.	.
16G\JJ	.	16b-\JJ	16b-\JJ	16G\	ad	16F/	ad	16f\	ad	16b-\	ad	.	.
!	!	!	!LO:PB:g=original	!LO:LB:g=original	!	!	!	!	!	!	!	!	!
=72	=72	=72	=72	=72	=72	=72	=72	=72	=72	=72	=72	=72	=72
!	!	!	!	!	!	!	!	!	!	!	!	!LO:TX:a:t=2	!
8An\L	X 6	8cc\L	8cc\L	8An\	dex-	8F/	dex-	8f\	dex-	8cc\	dex-	1r	1r
16G\L	.	16b-\L	16b-\L	16G\	-te-	16G/	-te-	16f\	-te-	16b-\	-te-	.	.
!	!	!	!LO:TX:a:t=P:problem=♮ above	!	!	!	!	!	!	!	!	!	!
16F\JJ	.	16an\JJ	16an\JJ	16F\	-ram	16An/	-ram	16f\	-ram	16an\	-ram	.	.
8G\L	X 7	8b-/L	8b-/L	8G\L	Pa-	4G/	Pa-	(>8f\L	Pa-	4b-\	Pa-	.	.
8C\J	X 7	16an/L	16an/L	8C\J	.	.	.	8en\J)	.	.	.	.	.
.	.	16g/JJ	16g/JJ	.	.	.	.	.	.	.	.	.	.
!	!	!LO:LB:g=original	!	!	!	!	!	!	!	!	!	!	!
=73	=73	=73	=73	=73	=73	=73	=73	=73	=73	=73	=73	=73	=73
!	!	!LO:TX:t=P:problem=mixed beam	!	!	!	!	!	!	!	!	!	!	!
4F\	X n_	8an/L	8an\L	4F\	-tris	4An/	-tris	4f\	-tris	4an\	-tris	.	.
.	.	8ff\	8ff\	.	.	.	.	.	.	.	.	.	.
8r	.	8ff\	8ff\	8r	.	8r	.	8r	.	8r	.	.	.
8F\	.	8ff\J	8ff\J	8F\	Et	8A/	Et	8f\	Et	8cc\	Et	.	.
=74	=74	=74	=74	=74	=74	=74	=74	=74	=74	=74	=74	=74	=74
!LO:TX:t=P:problem=mixed beam	!	!	!	!	!	!	!	!	!	!	!	!	!
8.B-\L	X X	16dd\LL	16dd\LL	8.B-\	i-	8.B-\	i-	8.f\	i-	8.dd\	i-	4r	4r
.	.	16cc\	16cc\	.	.	.	.	.	.	.	.	.	.
.	.	16dd\	16dd\	.	.	.	.	.	.	.	.	.	.
16B-\K	.	16cc\JJ	16cc\JJ	16B-\	-te-	16d\	-te-	16f\	-te-	16dd\	-te-	.	.
!	!	!	!	!	!	!LO:LB:g=original	!	!	!	!	!	!	!
!	!	!LO:TX:t=P:problem=mixed beam	!LO:TX:t=P:problem=mixed beam	!	!	!	!	!	!	!	!	!	!
8B-\	.	8b-/L	8b-/L	8B-\	-rum	8d\	-rum	8f\	-rum	8dd\	-rum	8r	8r
8BB-/J	.	8gg\J	8bb-\J	8BB-/	Ven-	8B-\	Ven-	8f\	Ven-	8dd\	Ven-	8ff\	8bb-\
!	!	!	!	!	!	!	!	!LO:LB:g=original	!	!	!	!	!
=75	=75	=75	=75	=75	=75	=75	=75	=75	=75	=75	=75	=75	=75
8.E-\L	.	16gg\LL	16gg\LL	8.E-\	-tu-	8.B-\	-tu-	8.g\	-tu-	8.ee-\	-ti-	8.ee-\L	8.gg\L
.	.	16ff\	16ff\	.	.	.	.	.	.	.	.	.	.
.	.	16gg\	16gg\	.	.	.	.	.	.	.	.	.	.
16E-\K	.	16ff\JJ	16ff\JJ	16E-\	-rus	16B-\	-rus	16g\	-rus	16ee-\	-rus	16ee-\K	16gg\K
8E-\	.	8ee-\L	8ee-\L	8E-\	eſt	8B-\	est	8g\	eſt	8ee-\	eſt	8ee-\	8gg\
8BB-\J	.	8ff\J	8ff\J	8BB-/	Ven-	8B-\	Ven-	8f\	Ven-	8dd\	Ven-	8ff\J	8bb-\J
=76	=76	=76	=76	=76	=76	=76	=76	=76	=76	=76	=76	=76	=76
8E-\L	.	16gg\LL	16gg\LL	8E-\	-tu-	8B-\	-tu-	8g\	-tu-	8ee-\	-tu-	8gg\L	8bb-\L
.	.	16aa-\	16aa-\	.	.	.	.	.	.	.	.	.	.
8E-\J	.	16bb-\	16bb-\	8E-\	-rus	8B-\	-rus	8g\	-rus	8ee-\	-rus	8gg\	8bb-\
.	.	16aa-\JJ	16aa-\JJ	.	.	.	.	.	.	.	.	.	.
16E-\LL	.	8gg\L	8gg\L	(>16E-\LL	est	8B-\	est	8g\	est	8ee-\	est	8gg\	8bb-\
16F\	.	.	.	16F\JJ)	.	.	.	.	.	.	.	.	.
16G\	.	8gg\J	8gg\J	(>16G\LL	cum	8B-\	Cum	8g\	Cum	8ee-\	cum	8gg\J	8bb-\J
16E-\JJ	.	.	.	16E-\JJ)	.	.	.	.	.	.	.	.	.
!	!	!	!	!	!	!	!	!	!	!	!	!	!LO:LB:g=original
=77	=77	=77	=77	=77	=77	=77	=77	=77	=77	=77	=77	=77	=77
8B-\L	.	16ff\LL	16ff\LL	8B-\	glo-	8B-\	glo-	8f\	glo-	8dd\	glo-	8ff\L	8bb-\L
.	.	16ee-\	16ee-\	.	.	.	.	.	.	.	.	.	.
8B-\J	.	16ff\	16ff\	16B-\	-ri-	16B-\	-ri-	16f\	-ri-	16dd\	-ri-	8ff\	8bb-\
.	.	16ee-\JJ	16ee-\JJ	16B-\	-a	16B-\	-a	16f\	-a	16dd\	-a	.	.
16B-\LL	.	16dd\LL	16dd\LL	8B-\	ju-	8B-\	ju-	8f\	ju-	(>16dd\LL	ju-	8ff\	8bb-\
16c\	.	16ee-\	16ee-\	.	.	.	.	.	.	16ee-\JJ)	.	.	.
16d\	.	16ff\	16ff\	8BB-/	-di-	8B-\	-di-	8f\	-di-	(>16ff\LL	-di-	8ff\J	8bb-\J
16B-\JJ	.	16dd\JJ	16dd\JJ	.	.	.	.	.	.	16ee-\JJ)	.	.	.
!	!	!	!	!	!	!	!	!	!	!LO:LB:g=original	!	!	!
=78	=78	=78	=78	=78	=78	=78	=78	=78	=78	=78	=78	=78	=78
8e-\L	.	8gg\L	8gg\L	8E-\	-ca-	8B-\	-ca-	8g\	-ca-	8ee-\	-ca-	8gg\L	8gg\L
8E-\J	.	16bb-\L	16bb-\L	8E-\	-re	8B-\	-re	8g\	-re	8ee-\	-re	8gg\J	8gg\J
.	.	16aa-\JJ	16aa-\JJ	.	.	.	.	.	.	.	.	.	.
!	!	!	!	!LO:PB:g=original	!	!	!	!	!	!	!	!	!
8r	.	16gg\LL	16gg\LL	8r	.	8r	.	8r	.	8r	.	4r	4r
.	.	16ff\	16ff\	.	.	.	.	.	.	.	.	.	.
8G\	X 6	16ee-\	16ee-\	8G\	Vi-	8B-\	Vi-	8g\	Vi-	8ee-\	Vi-	.	.
.	.	16dd\JJ	16dd\JJ	.	.	.	.	.	.	.	.	.	.
!LO:PB:g=original	!	!	!LO:LB:g=original	!	!	!	!	!	!	!	!	!	!
=79	=79	=79	=79	=79	=79	=79	=79	=79	=79	=79	=79	=79	=79
4A-X\	.	8cc\L	8cc\L	4A-\	-vos	4c\	-vos	4e-\	-vos	4cc\	-vos	4r	4r
.	.	16cc\L	16cc\L	.	.	.	.	.	.	.	.	.	.
.	.	16b-\JJ	16b-\JJ	.	.	.	.	.	.	.	.	.	.
8r	.	16a-X/LL	16a-X/LL	8r	.	8r	.	8r	.	8r	.	8r	8r
.	.	16g/	16g/	.	.	.	.	.	.	.	.	.	.
8D\	X 6	16f/	16f/	8D\	Vi-	(>16f\LL	Vi-	8f\	Vi-	8b-\	Vi-	8ff\	8bb-\
.	.	16b-/JJ	16b-/JJ	.	.	16B-\JJ)	.	.	.	.	.	.	.
!	!	!	!	!	!	!	!	!	!	!	!	!LO:LB:g=original	!
=80	=80	=80	=80	=80	=80	=80	=80	=80	=80	=80	=80	=80	=80
!LO:TX:t=P:problem=mixed beam	!	!	!	!	!	!	!	!	!	!	!	!	!
8E-\L	.	8g/L	8g/L	8E-\	-vos	8B-\	-vos	8g\	-vos	8g\	-vos	8gg\L	8bb-\L
8A-\	.	16a-/L	16a-/L	8AA-X/	et	8c\	et	(>16f\LL	et	8a-\	et	16ff\L	16aa-\L
.	.	16g/JJ	16g/JJ	.	.	.	.	16e-\JJ)	.	.	.	16ee-\JJ	16gg\JJ
!	!	!LO:LB:g=original	!	!	!	!	!	!	!	!	!	!	!
8B-\	.	8f/L	8f/L	8.BB-/	mor-	8.B-\	Mor-	8.d\	Mor-	8.f/	Mor-	8.b-/L	8.ff\L
8BB-/J	.	8b-/J	8b-/J	.	.	.	.	.	.	.	.	.	.
.	.	.	.	16BB-/	-tu-	16B-\	-tu-	16d\	-tu-	16f/	-tu-	16b-/Jk	16ff\Jk
!	!	!	!	!	!	!LO:LB:g=original	!	!	!	!	!	!	!
=81	=81	=81	=81	=81	=81	=81	=81	=81	=81	=81	=81	=81	=81
!	!	!LO:TX:t=P:problem=mixed beam	!LO:TX:t=P:problem=mixed beam	!	!	!	!	!	!	!	!	!	!
8E-\L	.	8g/L	8g/L	8E-\	-os	8B-\	-os	8e-\	-os	8g/	-os	4g/	4ee-\
16E-\L	.	8ee-\	8gg\	16E-\	Cu-	16B-\	Cu-	16g\	Cu-	16b-\	Cu-	.	.
16D\JJ	.	.	.	16D\	-jus	16B-\	-ius	16f\	-jus	16b-\	-jus	.	.
!	!	!	!	!	!	!	!	!LO:LB:g=original	!	!	!	!	!
8C/L	.	8ee-\	8gg\	8C/	re-	8G/	Re-	8e-\	Re-	8ee-\	Re-	4r	4r
16BB-/L	.	8ee-\J	8gg\J	16BB-/	-gni	16G/	-gni	16e-\	-gni	16dd\	-gni	.	.
16AA-/JJ	.	.	.	16AA-/	non	16G/	non	16e-\	non	16cc\	non	.	.
=82	=82	=82	=82	=82	=82	=82	=82	=82	=82	=82	=82	=82	=82
8GG/L	X 6	8ee-\L	8gg\L	8GG/	e-	8G/	e-	8e-\	e-	8b-\	e-	1r	1r
8AA-/J	.	8ee-\J	8ff\J	8AA-/	-rit	8c\	-rit	8e-\	-rit	16cc\LL	-rit	.	.
.	.	.	.	.	.	.	.	.	.	16f\JJ	.	.	.
4BB-/	6 5	8dd\L	8ff\L	4BB-/	Fi-	4B-\	Fi-	4d\	Fi-	4f/	Fi-	.	.
.	.	16ff\L	16bb-\L	.	.	.	.	.	.	.	.	.	.
.	.	16dd\JJ	16ff\JJ	.	.	.	.	.	.	.	.	.	.
=83	=83	=83	=83	=83	=83	=83	=83	=83	=83	=83	=83	=83	=83
!LO:TX:t=P:problem=mixed beam	!	!	!	!	!	!	!	!	!	!	!	!	!
8E-\L	.	8ee-\	8gg\	8E-\	-nis	8B-\	-nis	8e-\	-nis	8e-/	-nis	.	.
8BB-/	.	8r	8r	8BB-/	e-	8B-\	non	8d\	non	8f/	e-	.	.
8GG/	X 6	4r	4r	8GG/	-rit	8B-\	Non	8e-\	non	8g/	-rit	.	.
8BB-/J	.	.	.	8BB-/	Fi-	8B-\	Non	8d\	non	8f/	Fi-	.	.
=84	=84	=84	=84	=84	=84	=84	=84	=84	=84	=84	=84	=84	=84
!	!	!	!	!	!	!	!	!	!	!	!	!LO:TX:t=P:problem=mixed beam	!
8E-\	.	8ee-\L	8gg\L	8E-\	-nis	8B-\	Non	8e-\	non	8g/	-nis	8ee-\L	8gg\L
8r	.	8b-\	8ff\	8r	.	8r	.	8r	.	8r	.	8b-/	8ff\
4r	.	8g\	8ee-\	4r	.	4r	.	4ryy	.	4r	.	8g/	8ee-\
.	.	8b-\J	8ff\J	.	.	.	.	.	.	.	.	8b-/J	8ff\J
=85	=85	=85	=85	=85	=85	=85	=85	=85	=85	=85	=85	=85	=85
8r	.	8ee-\L	8gg\L	8r	.	8r	.	8r	.	8r	.	8ee-\L	8gg\L
8BB-/L	.	8dd\	8ff\	8B-\	non	8B-\	Non	8f\	non	8dd\	non	8ff\	8bb-\
8GG/	X 6	8ee-\	8ee-\	8G\	non	8B-\	non	8g\	n(on)	8ee-\	n(on)	8gg\	8bb-\
8BB-/J	.	8dd\J	8ff\J	8B-\	non	8B-\	Non	8f\	non	8dd\	non	8ff\J	8bb-\J
!	!	!	!	!LO:LB:g=original	!	!	!	!	!	!LO:LB:g=original	!	!	!
=86	=86	=86	=86	=86	=86	=86	=86	=86	=86	=86	=86	=86	=86
!LO:TX:t=P:problem=mixed beam	!	!	!	!	!	!	!	!	!	!	!	!	!
8E-\L	.	8ee-\L	4gg\	8e-\	e-	8B-\	e-	8g\	e-	8ee-\	e-	8gg\L	8bb-\L
8GG/	.	8ee-\	.	8G\	-rit	8B-\	-rit	8g\	-rit	8ee-\	-rit	8gg\	8bb-\
8AA-/	X 6	8ee-\	4ff\	8A-\L	Fi-	(>8c\L	Fi-	4f\	Fi-	8ee-\L	Fi-	8ff\	8ccc\
8BB-/J	.	8dd\J	.	8B-\J	.	8B-\J)	.	.	.	8dd\J	.	8ff\J	8bb-\J
=87	=87	=87	=87	=87	=87	=87	=87	=87	=87	=87	=87	=87	=87
4E-\	.	4ee-\	4ee-\	4E-\	-nis	4B-\	-nis	4g\	-nis	4ee-\	-nis	4ee-\	4gg\
4r	.	4r	4r	4r	.	4r	.	4r	.	4r	.	4r	4r
=88	=88	=88	=88	=88	=88	=88	=88	=88	=88	=88	=88	=88	=88
!LO:TX:a:i:t=Solo	!	!	!	!	!	!LO:TX:a:t=5	!	!	!	!	!	!	!
16E-\LL	.	16e-/LL	16e-/LL	0r	.	0r	.	1r	.	4b-\	Et	0r	0r
16F\	.	16f/	16f/	.	.	.	.	.	.	.	.	.	.
16G\	.	16g/	16g/	.	.	.	.	.	.	.	.	.	.
16F\JJ	.	16f/JJ	16f/JJ	.	.	.	.	.	.	.	.	.	.
!	!	!	!LO:LB:g=original	!	!	!	!	!	!	!	!	!	!
16E-\LL	.	16e-/LL	16e-/LL	.	.	.	.	.	.	8r	.	.	.
16F\	.	16f/	16f/	.	.	.	.	.	.	.	.	.	.
16E-\	.	16e-/	16e-/	.	.	.	.	.	.	8ee-\	in	.	.
16D\JJ	.	16d/JJ	16d/JJ	.	.	.	.	.	.	.	.	.	.
!LO:LB:g=original	!	!	!	!	!	!	!	!	!	!	!	!	!
=89	=89	=89	=89	=89	=89	=89	=89	=89	=89	=89	=89	=89	=89
8C\	.	8c/	8c/	.	.	.	.	.	.	8ee-\	Spi-	.	.
8r	.	8r	8r	.	.	.	.	.	.	16dd\	-ri-	.	.
.	.	.	.	.	.	.	.	.	.	16cc\	-tum	.	.
8D\	X 6	8d/	8d/	.	.	.	.	.	.	8b-\	San-	.	.
8r	.	8r	8r	.	.	.	.	.	.	8a-\	-ctum	.	.
=90	=90	=90	=90	=90	=90	=90	=90	=90	=90	=90	=90	=90	=90
4E-\	.	4e-/	4e-/	.	.	.	.	2r	.	(>16g\LL	Do-	.	.
.	.	.	.	.	.	.	.	.	.	16a-\JJ)	.	.	.
.	.	.	.	.	.	.	.	.	.	(>16b-\LL	-mi-	.	.
.	.	.	.	.	.	.	.	.	.	16g\JJ)	.	.	.
8r	X n	8r	8r	.	.	.	.	.	.	8e-/	-num	.	.
8G\	X 6	8g/	8g/	.	.	.	.	.	.	16ee-\	et	.	.
.	X 5	.	.	.	.	.	.	.	.	16dd\	Vi-	.	.
!	!	!LO:LB:g=original	!	!	!	!	!	!	!	!	!	!	!
=91	=91	=91	=91	=91	=91	=91	=91	=91	=91	=91	=91	=91	=91
!LO:TX:t=P:problem=mixed beam	!	!	!	!	!	!	!	!LO:TX:a:i:t=Solo	!	!	!	!	!
8A-\L	.	8a-/L	8a-X/L	.	.	.	.	4r	.	16cc\LL	-vi-	.	.
!	!	!	!	!	!	!	!	!	!	!LO:TX:a:t=P:problem=♮ above	!	!	!
.	.	.	.	.	.	.	.	.	.	16bn\JJ	.	.	.
8F\	.	8f/	8f/	.	.	.	.	.	.	16cc\LL	-fi-	.	.
.	.	.	.	.	.	.	.	.	.	16dd\JJ	.	.	.
8G\	X n	8b-/	8g/	.	.	.	.	8r	.	4bn\	-can-	.	.
8GG/J	.	8G/J	8G/J	.	.	.	.	16g\	Qui	.	.	.	.
.	.	.	.	.	.	.	.	16f\	cum	.	.	.	.
!	!	!	!	!	!	!	!	!LO:LB:g=original	!	!	!	!	!
=92	=92	=92	=92	=92	=92	=92	=92	=92	=92	=92	=92	=92	=92
8C\L	.	8c/L	8c/L	0r	.	2r	.	8e-\	Pa-	4cc\	-tem	0r	0r
16C\L	.	16c/L	16c/L	.	.	.	.	8c\	-tre	.	.	.	.
16D\JJ	.	16d/JJ	16d/JJ	.	.	.	.	.	.	.	.	.	.
8E-\L	X 6	8e-/L	8e-/L	.	.	.	.	8g\	Fi-	4r	.	.	.
16E-\L	.	16e-/L	16e-/L	.	.	.	.	8cc\	-li-	.	.	.	.
16F\JJ	.	16f/JJ	16f/JJ	.	.	.	.	.	.	.	.	.	.
=93	=93	=93	=93	=93	=93	=93	=93	=93	=93	=93	=93	=93	=93
8G\L	.	8g/L	8g/L	.	.	4r	.	8bn\	-o-	0r	.	.	.
16G\L	X n	16g/L	16g/L	.	.	.	.	8g\	-que	.	.	.	.
16F\JJ	.	16f/JJ	16f/JJ	.	.	.	.	.	.	.	.	.	.
8E-\	.	8e-/L	8e-/L	.	.	8r	.	8r	.	.	.	.	.
8r	.	8c/J	8c/J	.	.	8e-\	pro-	8g\	pro-	.	.	.	.
!	!	!	!	!	!	!LO:LB:g=original	!	!	!	!	!	!	!
=94	=94	=94	=94	=94	=94	=94	=94	=94	=94	=94	=94	=94	=94
8F\	.	8f/	8f/	.	.	16f\LL	-ce-	16a-\LL	-ce-	.	.	.	.
.	.	.	.	.	.	16g\	.	16b-\	.	.	.	.	.
8r	.	8r	8r	.	.	16f\	.	16a-\	.	.	.	.	.
.	.	.	.	.	.	16g\JJ	.	16b-\JJ	.	.	.	.	.
8C/	.	8c/	8c/	.	.	16e-\LL	.	16g\LL	.	.	.	.	.
.	.	.	.	.	.	16f\	.	16a-\	.	.	.	.	.
8r	.	8r	8r	.	.	16e-\	.	16g\	.	.	.	.	.
.	.	.	.	.	.	16f\JJ	.	16a-\JJ	.	.	.	.	.
=95	=95	=95	=95	=95	=95	=95	=95	=95	=95	=95	=95	=95	=95
8D\	X 6	8d/	8d/	.	.	16d\LL	.	16f\LL	.	.	.	.	.
.	.	.	.	.	.	16e-\	.	16g\	.	.	.	.	.
8r	.	8r	8r	.	.	16d\	.	16f\	.	.	.	.	.
.	.	.	.	.	.	16e-\JJ	.	16g\JJ	.	.	.	.	.
8E-\	X 6\	8e-/	8e-/	.	.	16c\LL	.	16e-\LL	.	.	.	.	.
.	.	.	.	.	.	16d\	.	16f\	.	.	.	.	.
8r	.	8r	8r	.	.	16c\	.	16e-\	.	.	.	.	.
.	.	.	.	.	.	16d\JJ	.	16f\JJ	.	.	.	.	.
=96	=96	=96	=96	=96	=96	=96	=96	=96	=96	=96	=96	=96	=96
!LO:TX:t=P:problem=mixed beam	!	!LO:TX:t=P:problem=mixed beam	!	!	!	!	!	!	!	!	!	!	!
8G\L	.	8b-\L	8g/L	1r	.	8Bn\	.	8d\	.	.	.	1r	1r
8GG/J	X n	8B-/J	8G/J	.	.	8B\	-dit	8d\	-dit	.	.	.	.
8G\L	.	8g/L	8g/L	.	.	8B\	Qui	8d\	Qui	.	.	.	.
8E-\J	X 6	8e-/J	8e-/J	.	.	8c\	cum	8g\	cum	.	.	.	.
!	!	!	!LO:LB:g=original	!	!	!	!	!	!	!	!	!	!
=97	=97	=97	=97	=97	=97	=97	=97	=97	=97	=97	=97	=97	=97
8D\L	X 6\	8d/L	8d/L	.	.	8Bn\	Pa-	8f\	Pa-	2r	.	.	.
8C\J	.	8c/J	8c/J	.	.	16c\	-tre	16e-\	-tre	.	.	.	.
.	.	.	.	.	.	16d\	et	16f\	et	.	.	.	.
!LO:TX:t=P:problem=mixed beam	!	!	!	!	!	!	!	!	!	!	!	!	!
8G\L	X n	8g/L	8g/L	.	.	8.Bn\	Fi-	8.d\	Fi-	.	.	.	.
8GG/J	.	8A-/J	8G/J	.	.	.	.	.	.	.	.	.	.
.	.	.	.	.	.	16B\	-li-	16d\	-li-	.	.	.	.
!	!	!	!	!	!	!	!	!LO:LB:g=original	!	!	!	!	!LO:LB:g=original
=98	=98	=98	=98	=98	=98	=98	=98	=98	=98	=98	=98	=98	=98
!LO:TX:a:i:t=Tutti	!	!LO:TX:t=P:problem=mixed beam	!LO:TX:t=P:problem=mixed beam	!	!	!	!	!	!	!	!	!	!
8E-\L	.	8c/L	8c/L	8r	.	8c\	-o	8c/	-o	8r	.	8r	8r
8G\J	.	8ee-\	8gg\	4E-\	Si-	4B-X\	Si-	4g\	Si-	4ee-\	Si-	8ee-\L	8gg\L
16E-\LL	.	8ee-\	8gg\	.	.	.	.	.	.	.	.	8ee-\	8gg\
16F\	.	.	.	.	.	.	.	.	.	.	.	.	.
16G\	.	8ee-\J	8gg\J	16G\LL	-mul	8B-\	-mul	8g\	-mul	8ee-\	-mul	8ee-\J	8gg\J
16E-\JJ	.	.	.	16E-\JJ	.	.	.	.	.	.	.	.	.
!LO:LB:g=original	!	!	!	!	!	!	!	!	!	!LO:LB:g=original	!	!	!
=99	=99	=99	=99	=99	=99	=99	=99	=99	=99	=99	=99	=99	=99
8B-\L	.	8dd\L	8ff\L	8B-\	Si-	8B-\	Si-	8f\	Si-	8dd\	Si-	8b-/L	8ff\L
8B-\J	.	8dd\J	8ff\	8B-\	-mul	8B-\	-mul	8f\	-mul	8dd\	-mul	8b-/	8ff\
16B-\LL	.	16dd\LL	8ff\	(>16B-\LL	a-	8B-\	a-	8f\	a-	8dd\	a-	8b-/	8ff\
16c\	.	16ee-\	.	16c\JJ)	.	.	.	.	.	.	.	.	.
16d\	.	16ff\	8ff\J	(>16d\LL	-do-	8B-\	-do-	8f\	-do-	8dd\	-do-	8b-/J	8ff\J
16B-\JJ	.	16dd\JJ	.	16B-\JJ)	.	.	.	.	.	.	.	.	.
!	!	!	!	!	!	!LO:LB:g=original	!	!	!	!	!	!	!
=100	=100	=100	=100	=100	=100	=100	=100	=100	=100	=100	=100	=100	=100
8e-\L	.	8ee-\L	8gg\L	8e-\	-ra-	8B-\	-ra-	8g\	-ra-	8ee-\	-ra-	8ee-\L	8gg\L
8E-\J	.	8ee-\J	8gg\J	8E-\	-tur	8B-\	-tur	8g\	-tur	8ee-\	-tur	8ee-\J	8gg\J
4r	.	4r	4r	8r	.	8r	.	8r	.	8r	.	4r	4r
.	.	.	.	8E-\	et	8c\	et	8a-\	et	8ee-\	et	.	.
=101	=101	=101	=101	=101	=101	=101	=101	=101	=101	=101	=101	=101	=101
2r	.	2r	2r	8E-\	Con-	8B-\	Con-	8g\	Con-	8ee-\	Con-	2r	2r
.	.	.	.	8E-\	-glo-	8c\	-glo-	8a-\	-glo-	8ee-\	-glo-	.	.
.	.	.	.	8E-\	-ri-	8B-\	-ri-	8g\	-ri-	8ee-\	-ri-	.	.
.	.	.	.	8E-\	-fi-	8A-\	-fi-	8f\	-fi-	8ee-\	-fi-	.	.
!	!	!LO:LB:g=original	!	!	!	!	!	!	!	!	!	!	!
=102	=102	=102	=102	=102	=102	=102	=102	=102	=102	=102	=102	=102	=102
4r	.	4r	4r	4E-\	-ca-	4B-\	-ca-	4g\	-ca-	4ee-\	-ca-	4r	4r
8r	.	8r	8r	8E-\	-tur	8B-\	-tur	8g\	-tur	8ee-\	-tur	8r	8r
8B-\	.	8dd\	8ff\	8B-\	et	8B-\	et	8f\	et	8dd\	et	8b-/	8ff\
!	!	!	!	!	!	!	!	!	!	!	!	!LO:LB:g=original	!
=103	=103	=103	=103	=103	=103	=103	=103	=103	=103	=103	=103	=103	=103
8G\L	X 6_	8ee-\L	4.gg\	4.G\	Con-	4.B-\	Con-	4.g\	Con-	4.ee-\	con-	4.ee-\	8gg\L
8F\	.	8ee-\	.	.	.	.	.	.	.	.	.	.	8aa-\
8G\	.	8ee-\	.	.	.	.	.	.	.	.	.	.	8bb-\
8A-\J	6 5	8ee-\J	8ff\	8A-\	-glo-	8c\	-glo-	8f\	-glo-	8ee-\	-glo-	16ff\LL	8ccc\J
.	.	.	.	.	.	.	.	.	.	.	.	16ee-\JJ	.
!	!	!	!	!LO:LB:g=original	!	!	!	!	!	!	!	!	!
=104	=104	=104	=104	=104	=104	=104	=104	=104	=104	=104	=104	=104	=104
!LO:TX:t=P:problem=mixed beam	!	!	!	!	!	!	!	!	!	!	!	!	!
8B-\L	.	8dd\L	8ff\L	8B-\	-ri-	8B-\	-ri-	8f\	-ri-	8dd\	-ri-	8b-/L	8ff\L
8E-\	.	16ee-\L	16gg\L	8E-\	-fi-	8B-\	-fi-	16g\LL	-fi-	(>16ee-\LL	-fi-	16b-/L	16gg\L
.	.	16ff\JJ	16ff\JJ	.	.	.	.	16a-\JJ	.	16ff\JJ)	.	16b-/JJ	16ff\JJ
8B-\	.	4ddt\	8ff\L	4BB-/	-ca-	4B-\	-ca-	4f\	-ca-	4dd\	-ca-	8b-/L	8.ff\L
8BB-/J	.	.	8bb-\J	.	.	.	.	.	.	.	.	16b-/L	.
.	.	.	.	.	.	.	.	.	.	.	.	16b-/JJ	16ff\Jk
=105	=105	=105	=105	=105	=105	=105	=105	=105	=105	=105	=105	=105	=105
4E-\	.	8ee-\	8gg\	8E-\	-tur	8B-\	-tur	8g\	-tur	8ee-\	-tur	8g/	8ee-\
.	.	8r	8r	16B-\	Qui	8r	.	8r	.	8r	.	8r	8r
.	.	.	.	16A-\	lo-	.	.	.	.	.	.	.	.
4r	.	4r	4r	8G\	-cu-	4r	.	4r	.	4r	.	4r	4r
.	.	.	.	16F\	-tus	.	.	.	.	.	.	.	.
.	.	.	.	16E-\	eſt	.	.	.	.	.	.	.	.
!	!	!	!	!	!	!	!	!LO:LB:g=original	!	!	!	!	!
=106	=106	=106	=106	=106	=106	=106	=106	=106	=106	=106	=106	=106	=106
8r	.	1r	1r	4c\	per	0r	.	0r	.	0r	.	0r	0r
8A-\L	.	.	.	.	.	.	.	.	.	.	.	.	.
8G\	.	.	.	4B-\	Pro-	.	.	.	.	.	.	.	.
8E-\J	.	.	.	.	.	.	.	.	.	.	.	.	.
=107	=107	=107	=107	=107	=107	=107	=107	=107	=107	=107	=107	=107	=107
8F\L	.	.	.	8A-\L	-phae-	.	.	.	.	.	.	.	.
8E-\	.	.	.	16B-\L	.	.	.	.	.	.	.	.	.
.	.	.	.	16c\JJ	.	.	.	.	.	.	.	.	.
8D\	.	.	.	8F\L	.	.	.	.	.	.	.	.	.
8BB-\J	.	.	.	16B-\L	.	.	.	.	.	.	.	.	.
.	.	.	.	16A-\JJ	.	.	.	.	.	.	.	.	.
=108	=108	=108	=108	=108	=108	=108	=108	=108	=108	=108	=108	=108	=108
8E-\L	.	8r	8r	8G\	.	.	.	.	.	.	.	.	.
8E-\	.	8b-\L	8gg\	8E-\	-tas	.	.	.	.	.	.	.	.
8D\	X 6	8b-\	16ff\LL	4r	.	.	.	.	.	.	.	.	.
.	.	.	16gg\	.	.	.	.	.	.	.	.	.	.
8C\J	X 6\	8an\J	16ee-\	.	.	.	.	.	.	.	.	.	.
.	.	.	16ff\JJ	.	.	.	.	.	.	.	.	.	.
!	!	!	!LO:LB:g=original	!	!	!	!	!	!	!	!	!	!
=109	=109	=109	=109	=109	=109	=109	=109	=109	=109	=109	=109	=109	=109
!LO:TX:t=P:problem=mixed beam	!	!	!	!	!	!	!	!	!	!	!	!	!
8BB-/L	.	8b-\	8dd\	8r	.	.	.	.	.	.	.	.	.
8B-\	.	8r	8r	8B-\	Et	.	.	.	.	.	.	.	.
8An\	X 6	4r	4r	8An\	V-	.	.	.	.	.	.	.	.
8G\J	.	.	.	8G\	-nam	.	.	.	.	.	.	.	.
=110	=110	=110	=110	=110	=110	=110	=110	=110	=110	=110	=110	=110	=110
4F\	X #	4r	8r	8An\	San-	0r	.	0r	.	0r	.	0r	0r
.	.	.	8ff\	8F\	-ctam	.	.	.	.	.	.	.	.
8r	.	8r	16ff\LL	8r	.	.	.	.	.	.	.	.	.
.	.	.	16gg\	.	.	.	.	.	.	.	.	.	.
8B-\	.	8dd\	16ff\	8B-\	Ca-	.	.	.	.	.	.	.	.
.	.	.	16gg\JJ	.	.	.	.	.	.	.	.	.	.
!LO:LB:g=original	!	!	!	!	!	!	!	!	!	!	!	!	!
=111	=111	=111	=111	=111	=111	=111	=111	=111	=111	=111	=111	=111	=111
8An\L	X 6	8cc\L	8ff\L	8An\	-tho-	.	.	.	.	.	.	.	.
8F\J	X n	8an\J	8ff\J	16F\	-li-	.	.	.	.	.	.	.	.
.	.	.	.	16F\	-cam	.	.	.	.	.	.	.	.
!	!	!	!	!LO:LB:g=original	!	!	!	!	!	!	!	!	!
8r	.	8r	16ff\LL	8r	.	.	.	.	.	.	.	.	.
.	.	.	16gg\	.	.	.	.	.	.	.	.	.	.
8B-\	.	8dd\	16ff\	8B-\	et	.	.	.	.	.	.	.	.
.	.	.	16gg\JJ	.	.	.	.	.	.	.	.	.	.
=112	=112	=112	=112	=112	=112	=112	=112	=112	=112	=112	=112	=112	=112
8F\L	X n_	8cc\L	4ff\	8F\	A-	.	.	.	.	.	.	.	.
8G\	.	8b-\J	.	8G\	-po-	.	.	.	.	.	.	.	.
8F\	X X	8an/L	8r	8F\	-sto-	.	.	.	.	.	.	.	.
8E-\J	.	16g/L	8gg\	8E-\	-li-	.	.	.	.	.	.	.	.
.	.	16a/JJ	.	.	.	.	.	.	.	.	.	.	.
=113	=113	=113	=113	=113	=113	=113	=113	=113	=113	=113	=113	=113	=113
8D\L	X 6	8b-\L	8ff\L	8D\	-cam	.	.	.	.	.	.	.	.
8E-\	.	16cc\L	16ee-\L	8E-\	Ec-	.	.	.	.	.	.	.	.
.	.	16b-\JJ	16dd\JJ	.	.	.	.	.	.	.	.	.	.
8F\	X n	8.an/L	8.cc\L	8F\	-cle-	.	.	.	.	.	.	.	.
8FF/J	.	.	.	8FF/	-si-	.	.	.	.	.	.	.	.
.	.	16a/Jk	16cc\Jk	.	.	.	.	.	.	.	.	.	.
=114	=114	=114	=114	=114	=114	=114	=114	=114	=114	=114	=114	=114	=114
4BB-/	.	8b-/	8b-\	4BB-/	-am	8r	.	8r	.	0r	.	1r	1r
.	.	8r	8r	.	.	8B-\	Con-	8d\	Con-	.	.	.	.
8r	.	4r	4r	4r	.	8B-\	-fi-	8d\	-fi-	.	.	.	.
8BB-/	.	.	.	.	.	16B-\	-te-	16d\	-te-	.	.	.	.
.	.	.	.	.	.	16B-\	-or	16d\	-or	.	.	.	.
!	!	!LO:LB:g=original	!	!	!	!LO:LB:g=original	!	!	!	!	!	!	!
=115	=115	=115	=115	=115	=115	=115	=115	=115	=115	=115	=115	=115	=115
4C/	X 7	2r	2r	2r	.	(>8B-\L	V-	4e-\	V-	.	.	.	.
.	X 6	.	.	.	.	8A-\J)	.	.	.	.	.	.	.
8r	.	.	.	.	.	8A-\	-num	8f\	-num	.	.	.	.
8D\	.	.	.	.	.	8A-\	Ba-	8f\	Bap-	.	.	.	.
=116	=116	=116	=116	=116	=116	=116	=116	=116	=116	=116	=116	=116	=116
8E-\L	X 4	8r	8r	8r	.	8A-/	-pti-	8B-/	-tiſ-	.	.	8r	8r
16E-\L	X 3	8ee-\L	8gg\L	16E-\	in	8G/	-ſma	8B-/	-ma	.	.	8ee-\L	8gg\L
16F\JJ	.	.	.	16F\	re-	.	.	.	.	.	.	.	.
8G\L	X 6	8ee-\	8gg\	8G\	-miſ-	4r	.	4r	.	.	.	8ee-\	8gg\
8E-\J	.	8ee-\J	8gg\J	8E-\	-si-	.	.	.	.	.	.	8ee-\J	8gg\J
=117	=117	=117	=117	=117	=117	=117	=117	=117	=117	=117	=117	=117	=117
!LO:TX:t=P:problem=mixed beam	!	!	!	!	!	!	!	!	!	!	!	!	!
8A-\L	6 5	8ee-\L	8ff\L	8A-\	-o-	2r	.	2r	.	.	.	8ee-\L	8ff\L
8F\	.	16ff\L	8ff\J	8F\	-nem	.	.	.	.	.	.	8ff\	8ff\
.	.	16ee-\JJ	.	.	.	.	.	.	.	.	.	.	.
8B-\	.	8dd\L	16ff\LL	8B-\	pec-	.	.	.	.	.	.	8b-\	8ff\
.	.	.	16gg\	.	.	.	.	.	.	.	.	.	.
8BB-/J	.	16cc\L	16ee-\	8BB-/	-ca-	.	.	.	.	.	.	8b-\J	8ff\J
.	.	16dd\JJ	16ff\JJ	.	.	.	.	.	.	.	.	.	.
!	!	!	!	!	!	!	!	!	!	!	!	!	!LO:LB:g=original
=118	=118	=118	=118	=118	=118	=118	=118	=118	=118	=118	=118	=118	=118
4E-\	.	8ee-\	8gg\	8E-\	-to-	8r	.	8r	.	1r	.	8g/	8ee-\
.	.	8r	8r	8E-\	-rum	4e-\	et	4g\	et	.	.	8r	8r
8r	.	4r	4r	4r	.	.	.	.	.	.	.	4r	4r
8E-\	.	.	.	.	.	8e-\	ex-	8g\	ex-	.	.	.	.
!	!	!	!LO:LB:g=original	!	!	!	!	!	!	!	!	!	!
=119	=119	=119	=119	=119	=119	=119	=119	=119	=119	=119	=119	=119	=119
4F\	X 7	0r	0r	2r	.	8e-\	-pec-	8a-\	-pec-	.	.	0r	0r
.	X 6-	.	.	.	.	8d-X\	-to	8a-\	-to	.	.	.	.
8r	.	.	.	.	.	16d-\	Re-	16b-\	re-	.	.	.	.
.	.	.	.	.	.	16d-\	-ſur-	16b-\	-ſur-	.	.	.	.
8G\	X 5-	.	.	.	.	16d-\	-re-	16b-\	-rec-	.	.	.	.
.	.	.	.	.	.	16d-\	-cti-	16b-\	-ti-	.	.	.	.
=120	=120	=120	=120	=120	=120	=120	=120	=120	=120	=120	=120	=120	=120
4A-\	.	.	.	4r	.	8d\	-o-	8e-\	-o-	4r	.	.	.
.	.	.	.	.	.	8c\	-nem	8e-\	-nem	.	.	.	.
4C/	.	.	.	8C/	Mor-	8A-\	mor-	8e-\	mor-	8a-\	Mor-	.	.
.	.	.	.	8C/	-tu-	8e-\	-tu-	8e-\	-tu-	8a-\	-tu-	.	.
!	!	!	!	!LO:LB:g=original	!	!	!	!	!	!	!	!	!
=121	=121	=121	=121	=121	=121	=121	=121	=121	=121	=121	=121	=121	=121
2D-X/	.	.	.	2D-/	-o-	2d\	-o-	2f\	-o-	2a-\	-o-	.	.
!LO:LB:g=original	!	!	!	!	!	!	!	!	!	!LO:LB:g=original	!	!	!
=122	=122	=122	=122	=122	=122	=122	=122	=122	=122	=122	=122	=122	=122
2AA-/	.	.	.	2AA-/	-rum	2c\	-rum	2e-\	-rum	2cc\	-rum	.	.
!	!	!	!	!	!	!	!	!LO:LB:g=original	!	!	!	!	!
*clefC3	*	*	*	*	*	*	*	*	*	*	*	*	*
=123	=123	=123	=123	=123	=123	=123	=123	=123	=123	=123	=123	=123	=123
8e-\L|	.	8e-/L	1r	1r	.	2r	.	8e-\	Et	1r	.	1r	1r
8e-\J|	.	8e-/J	.	.	.	.	.	8e-\	Vi-	.	.	.	.
16e-\LL|	.	16e-/LL	.	.	.	.	.	(>16e-\LL	-tam	.	.	.	.
16f\|	.	16f/	.	.	.	.	.	16f\JJ)	.	.	.	.	.
16g\|	.	16g/	.	.	.	.	.	(>16g\LL	Ven-	.	.	.	.
16e-\JJ|	.	16e-/JJ	.	.	.	.	.	16e-\JJ)	.	.	.	.	.
!	!	!	!	!	!	!LO:LB:g=original	!	!	!	!	!	!	!
=124	=124	=124	=124	=124	=124	=124	=124	=124	=124	=124	=124	=124	=124
8d\L	.	8b-\L	.	.	.	8B-\	Et	4b-\	-tu-	.	.	.	.
8d\J	.	8b-\	.	.	.	8B-\	Vi-	.	.	.	.	.	.
16d\LL	.	8b-\	.	.	.	(>16B-\LL	-tam	4b-\	-ri	.	.	.	.
16e-\	.	.	.	.	.	16c\JJ)	.	.	.	.	.	.	.
16f\	.	8b-\J	.	.	.	(>16d\LL	Ven-	.	.	.	.	.	.
16d\JJ	.	.	.	.	.	16B-\JJ)	.	.	.	.	.	.	.
=125	=125	=125	=125	=125	=125	=125	=125	=125	=125	=125	=125	=125	=125
*clefF4	*	*	*	*	*	*	*	*	*	*	*	*	*
8E-\L	.	8g/L	8ee-\L	8E-\	Et	4e-\	-tu-	8g\	Et	8ee-\	Et	8gg\L	8bb-\L
8E-\J	.	8g/J	8ee-\	8E-\	Vi-	.	.	8g\	Vi-	8ee-\	Vi-	8gg\	8bb-\
16E-\LL	.	16g/LL	8ee-\	(>16E-\LL	-tam	8e-\	-ri	8g\	-tam	8ee-\	-tam	8gg\	8bb-\
16F\	.	16a-/	.	16F\JJ)	.	.	.	.	.	.	.	.	.
16G\	X 6	16b-/	8ee-\J	(>16G\LL)	Ven-	8B-\	et	8g\	Ven-	8ee-\	Ven-	8gg\J	8bb-\J
16E-\JJ	.	16g/JJ	.	16E-\JJ)	.	.	.	.	.	.	.	.	.
=126	=126	=126	=126	=126	=126	=126	=126	=126	=126	=126	=126	=126	=126
8A-\L	.	8e-/L	8cc\L	4A-\	-tu-	4c\	Vi-	4e-\	-tu-	4cc\	-tu-	4ee-\	4ccc\
8A-\J	.	8e-/	8cc\J	.	.	.	.	.	.	.	.	.	.
16A-\LL	.	8e-/	16cc\LL	8A-\	-ri	8c\	-tam	8e-\	-ri	8cc\	-ri	4r	4r
16B-\	.	.	16dd\	.	.	.	.	.	.	.	.	.	.
16c\	.	8e-/J	16ee-\	8A-\	Ven-	8c\	Ven-	8e-\	Ven-	8cc\	Ven-	.	.
16A-\JJ	.	.	16cc\JJ	.	.	.	.	.	.	.	.	.	.
=127	=127	=127	=127	=127	=127	=127	=127	=127	=127	=127	=127	=127	=127
8F\L	.	8a-X/L	8ff\L	8F\	-tu-	8c\	-tu-	8a-\	-tu-	8ff\	-tu-	8ff\L	8aa-\L
8F\J	.	8a-/J	8ff\	8F\	-ri	8c\	-ri	8a-\	-ri	8ff\	-ri	8ff\	8aa-\
16F\LL	.	16a-/LL	8ff\	8F\	Sae-	8c\	Sae-	8a-\	Sae-	8ff\	Sae-	8ff\	8aa-\
16G\	.	16b-/	.	.	.	.	.	.	.	.	.	.	.
16A-\	.	16cc/	8ff\J	16F\	-cu-	16c\	-cu-	16a-\	-cu-	16ff\	-cu-	8ff\J	8aa-\J
16F\JJ	.	16a-/JJ	.	16F\	-li	16c\	-li	16a-\	-li	16ff\	-li	.	.
=128	=128	=128	=128	=128	=128	=128	=128	=128	=128	=128	=128	=128	=128
8B-\L	.	8f/L	8dd\L	4B-\	A-	4d\	A-	4f\	A-	4dd\	A-	4b-/	4ff\
8B-\J	.	8f/	8dd\J	.	.	.	.	.	.	.	.	.	.
16B-\LL	.	8f/	16dd\LL	8B-\	-men	8d\	-men	8f\	-men	8dd\	-men	4r	4r
16c\	.	.	16ee-\	.	.	.	.	.	.	.	.	.	.
16d\	.	8f/J	16ff\	8B-\	Ven-	8d\	Ven-	8f\	Ven-	8dd\	Ven-	.	.
16B-\JJ	.	.	16dd\JJ	.	.	.	.	.	.	.	.	.	.
!LO:LB:g=original	!	!LO:LB:g=original	!	!	!	!	!	!	!	!	!	!LO:LB:g=original	!
=129	=129	=129	=129	=129	=129	=129	=129	=129	=129	=129	=129	=129	=129
8G\L	.	8b-\L	8gg\L	4.G\	-tu-	4.d\	-tu-	4.b-\	-tu-	4.gg\	-tu-	8gg\L	8bb-\L
8G\J	.	8b-\J	8gg\	.	.	.	.	.	.	.	.	8gg\	8bb-\
16G\LL	.	16b-\LL	8gg\	.	.	.	.	.	.	.	.	8gg\	8bb-\
16A-\	.	16cc\	.	.	.	.	.	.	.	.	.	.	.
16B-\	.	16dd\	8gg\J	8G\	-ri	8d\	-ri	8b-\	-ri	8gg\	-ri	8gg\J	8bb-\J
16G\JJ	.	16b-\JJ	.	.	.	.	.	.	.	.	.	.	.
=130	=130	=130	=130	=130	=130	=130	=130	=130	=130	=130	=130	=130	=130
8c\L	.	8g/L	8ee-\L	8c\	Sae-	8e-\	Sae-	8g\	Sae-	8ee-\	Sae-	8ee-\L	8gg\L
8A-\J	.	16a-/L	16ff\L	16A-\	-cu-	16c\	-cu-	16a-\	-cu-	16ff\	-cu-	16ff\L	16aa-\L
.	.	16g/JJ	16ee-\JJ	16A-\	-li	16c\	-li	16g\	-li	16ee-\	-li	16ee-\JJ	16gg\JJ
!LO:TX:t=P:problem=mixed beam	!	!	!	!LO:TX:t=P:problem=mixed beam	!	!	!	!	!	!	!	!	!
8B-\L	.	8f/L	8dd\L	8B-\L	A-	4B-\	A-	4f\	a-	4dd\	A-	8b-/L	8ff\L
8BB-/J	.	16e-/L	16cc\L	8BB-/J	.	.	.	.	.	.	.	8b-/J	16ee-\L
.	.	16f/JJ	16dd\JJ	.	.	.	.	.	.	.	.	.	16ff\JJ
!	!	!	!	!LO:LB:g=original	!	!LO:LB:g=original	!	!LO:LB:g=original	!	!	!	!	!
=131	=131	=131	=131	=131	=131	=131	=131	=131	=131	=131	=131	=131	=131
8E-\L	.	8g/L	8ee-\L	8E-\	-men	8B-\	-men	8g\	-men	8ee-\	-men	8g/	8ee-\
8D\	.	8b-/J	8ff\	8D\	A-	4B-\	A-	8f\	A-	8ff\	A-	8r	8r
8E-\	.	16ee-\LL	8gg\	(>8E-\L	.	.	.	(>16g\LL	.	16ee-\LL	.	4r	4r
.	.	16dd\	.	.	.	.	.	16f\JJ)	.	16dd\	.	.	.
8C\J	.	16ee-\	8aan\J	8C\J)	.	8An/	.	(>16g\LL	.	16ee-\	.	.	.
.	.	16cc\JJ	.	.	.	.	.	16e-\JJ)	.	16cc\JJ	.	.	.
!	!	!	!	!	!	!	!	!	!	!LO:LB:g=original	!	!	!
=132	=132	=132	=132	=132	=132	=132	=132	=132	=132	=132	=132	=132	=132
8BB-/	.	8dd\L	8bb-\L	8BB-/	-men	8B-\	-men	8f\	-men	8dd\	-men	0r	0r
8r	.	8b-\J	8b-\J	8r	.	8r	.	8r	.	8b-\	Et	.	.
4r	.	16b-\LL	16b-\LL	4r	.	4r	.	4r	.	(>16b-\LL	Vi-	.	.
.	.	16cc\	16cc\	.	.	.	.	.	.	16cc\JJ)	.	.	.
.	.	16dd\	16dd\	.	.	.	.	.	.	(>16dd\LL	-tam	.	.
.	.	16b-\JJ	16b-\JJ	.	.	.	.	.	.	16b-\JJ)	.	.	.
!	!	!	!LO:LB:g=original	!	!	!	!	!	!	!	!	!	!
=133	=133	=133	=133	=133	=133	=133	=133	=133	=133	=133	=133	=133	=133
8r	.	8ff\L	8ff\L	8r	.	8r	.	8an\	Vi-	4ff\	Vi-	.	.
8F\	X n	8ff\	8ff\	8F\	Vi-	8c\	Vi-	8a\	-tam	.	.	.	.
16F\LL	.	8ff\	8ff\	(>16F\LL	-tam	8c\	-tam	8f\	Ven-	8ff\	-tam	.	.
16G\	.	.	.	16G\JJ)	.	.	.	.	.	.	.	.	.
16An 16F\	.	8ff\J	8ff\J	(>16An\LL	Ven-	8c\	Ven-	8f\yy	.	8ff\	Ven-	.	.
16F\JJ	.	.	.	16F\JJ)	.	.	.	.	.	.	.	.	.
=134	=134	=134	=134	=134	=134	=134	=134	=134	=134	=134	=134	=134	=134
!LO:TX:t=P:problem=mixed beam	!	!	!	!	!	!	!	!	!	!	!	!	!
8B-\L	.	8dd\L	8dd\L	4.B-\	-tu-	4.d\	-tu-	4.f\	-tu-	4.dd\	-tu-	.	.
8BB-/J	.	8dd\J	8dd\J	.	.	.	.	.	.	.	.	.	.
16BB-/LL	.	16dd\LL	16dd\LL	.	.	.	.	.	.	.	.	.	.
16C/	.	16ee-\	16ee-\	.	.	.	.	.	.	.	.	.	.
16D/	.	16ff\	16ff\	8BB-/	-ri	8B-\	-ri	8f\	-ri	8dd\	-ri	.	.
16BB-/JJ	.	16dd\JJ	16dd\JJ	.	.	.	.	.	.	.	.	.	.
=135	=135	=135	=135	=135	=135	=135	=135	=135	=135	=135	=135	=135	=135
!LO:TX:t=P:problem=mixed beam	!	!	!	!	!	!	!	!	!	!	!	!	!
8E-\L	6 5	8cc\L	8cc\L	8E-\	Sae-	8B-\	Sae-	8g\	Sae-	8cc\	Sae-	.	.
8C\	.	8cc\	8cc\	16C/	-cu-	16c\	-cu-	16g\	-cu-	16cc\	-cu-	.	.
.	.	.	.	16C/	-li	16B-\	-li	16g\	-li	16cc\	-li	.	.
!	!	!	!	!LO:TX:t=P:problem=mixed beam	!	!	!	!	!	!	!	!	!
8F\	.	8cc\	8cc\	8F\L	a-	4An/	A-	4f\	A-	4cc\	A-	.	.
8FF/J	.	8ff\J	8ff\J	8FF/J	.	.	.	.	.	.	.	.	.
=136	=136	=136	=136	=136	=136	=136	=136	=136	=136	=136	=136	=136	=136
8BB-/	.	8dd\L	8dd\L	8BB-/	-men	8B-\	-men	8f\	-men	8dd\	-men	2r	2r
8r	.	8b-\J	8b-\J	8r	.	8r	.	8r	.	8b-\	et	.	.
4r	.	16b-\LL	16b-\LL	4r	.	4r	.	4r	.	(>16b-\LL	Vi-	.	.
.	.	16cc\	16cc\	.	.	.	.	.	.	16cc\JJ)	.	.	.
.	.	16dd\	16dd\	.	.	.	.	.	.	(>16dd\LL	-tam	.	.
.	.	16b-\JJ	16b-\JJ	.	.	.	.	.	.	16b-\JJ)	.	.	.
=137	=137	=137	=137	=137	=137	=137	=137	=137	=137	=137	=137	=137	=137
8r	.	8ee-\L	8ee-\L	8r	.	8r	.	8r	.	4ee-\	Vi-	8r	8r
8E-\	.	8ee-\	8ee-\	8E-\	Vi-	8B-\	Vi-	8g\	Vi-	.	.	8ee-\L	8gg\L
16E-\LL	.	8ee-\	8ee-\	(>16E-\LL	-tam	8B-\	-tam	8g\	-tam	8ee-\	-tam	8ee-\	8gg\
16F\	.	.	.	16F\JJ)	.	.	.	.	.	.	.	.	.
16G\	.	8ee-\J	8ee-\J	(>16G\LL	Ven-	8B-\	Ven-	8g\	Ven-	8ee-\	Ven-	8ee-\J	8gg\J
16E-\JJ	.	.	.	16E-\JJ)	.	.	.	.	.	.	.	.	.
!LO:LB:g=original	!	!LO:LB:g=original	!	!	!	!	!	!LO:LB:g=original	!	!	!	!	!LO:LB:g=original
=138	=138	=138	=138	=138	=138	=138	=138	=138	=138	=138	=138	=138	=138
!LO:TX:t=P:problem=mixed beam	!	!	!	!	!	!	!	!	!	!	!	!	!
8B-\L	.	8dd\L	8dd\L	4.B-\	-tu-	4.B-\	-tu-	4.f\	-tu-	4.dd\	-tu-	8b-/L	8ff\L
8BB-/J	.	8dd\J	8dd\J	.	.	.	.	.	.	.	.	8b-/	8ff\
16BB-/LL	.	16dd\LL	16dd\LL	.	.	.	.	.	.	.	.	8b-/	8ff\
16C/	.	16ee-\	16ee-\	.	.	.	.	.	.	.	.	.	.
16D/	.	16ff\	16ff\	8BB-/	-ri	8B-\	-ri	8f\	-ri	8dd\	-ri	8b-/J	8ff\J
16BB-/JJ	.	16dd\JJ	16dd\JJ	.	.	.	.	.	.	.	.	.	.
!	!	!	!	!LO:LB:g=original	!	!LO:LB:g=original	!	!	!	!	!	!	!
=139	=139	=139	=139	=139	=139	=139	=139	=139	=139	=139	=139	=139	=139
!LO:TX:t=P:problem=mixed beam	!	!	!	!	!	!	!	!	!	!	!	!	!
8E-\L	.	8ee-\L	8ee-\L	8E-\	sae-	8B-\	Sae-	8g\	Sae-	8ee-\	Sae-	8ee-\L	8gg\L
8A-\	.	16ff\L	16ff\L	16AA-/	-cu-	16c\	-cu-	16a-\	-cu-	16ff\	-cu-	16ff\L	16aa-\L
.	.	16ee-\JJ	16ee-\JJ	16AA-/	-li	16c\	-li	16g\	-li	16ee-\	-li	16ee-\JJ	16gg\JJ
8B-\	.	8dd\L	8dd\L	4BB-/	a-	4B-\	A-	4f\	A-	4dd\	A-	8b-/L	8ff\L
8BB-/J	.	16cc\L	16cc\L	.	.	.	.	.	.	.	.	8b-/J	16ee-\L
.	.	16dd\JJ	16dd\JJ	.	.	.	.	.	.	.	.	.	16ff\JJ
=140	=140	=140	=140	=140	=140	=140	=140	=140	=140	=140	=140	=140	=140
4E-\	.	4ee-\	4ee-\	4E-\	-men	4B-\	-men	4g\	-men.	4ee-\	-men.	4g/	4ee-\
4r	.	4r	4r	4r	.	4r	.	4r	.	4r	.	4r	4r
==	==	==	==	==	==	==	==	==	==	==	==	==	==
*-	*-	*-	*-	*-	*-	*-	*-	*-	*-	*-	*-	*-	*-
!!!system-decoration: [(g1)][(g2)][(g3)]s9
!!!RDF**kern: | = vertical stroke
!!!RDF**kern: > = above
!!!RDF**kern: < = below
!!!AIN: 1 alto 1 bass 2 lituus 1 organ 1 soprn 1 tenor 2 violn
!!!ENC: Mateusz Solarz
!!!END: 2020-12-14
!!!EED: Antoni Szymański
!!!EST: 2022-03-24
